;This Gcode has been generated specifically for the LulzBot Mini
;Basic settings: Layer height: 0.38 Walls: 1 Fill: 20
;Filament Diameter: 2.85
;Nozzle Size: 0.5
G21                          ; metric values
G90                          ; absolute positioning
M82                          ; set extruder to absolute mode
M107                         ; start with the fan off
G92 E0                       ; set extruder position to 0
M140 S60; get bed heating up
G28                          ; home all
M109 S140                    ; set to cleaning temp and wait
G1 Z150 E-30 F75             ; suck up XXmm of filament
M109 S140                    ; heat up rest of way
G1 X45 Y174 F11520           ; move behind scraper
G1 Z0  F1200                 ; CRITICAL: set Z to height of top of scraper
G1 X45 Y174 Z-.5 F4000       ; wiping ; plunge into wipe pad
G1 X55 Y172 Z-.5 F4000       ; wiping
G1 X45 Y174 Z0 F4000         ; wiping
G1 X55 Y172 F4000            ; wiping
G1 X45 Y174 F4000            ; wiping
G1 X55 Y172 F4000            ; wiping
G1 X45 Y174 F4000            ; wiping
G1 X55 Y172 F4000            ; wiping
G1 X60 Y174 F4000            ; wiping
G1 X80 Y172 F4000            ; wiping
G1 X60 Y174 F4000            ; wiping
G1 X80 Y172 F4000            ; wiping
G1 X60 Y174 F4000            ; wiping
G1 X90 Y172 F4000            ; wiping
G1 X80 Y174 F4000            ; wiping
G1 X100 Y172 F4000           ; wiping
G1 X80 Y174 F4000            ; wiping
G1 X100 Y172 F4000           ; wiping
G1 X80 Y174 F4000            ; wiping
G1 X100 Y172 F4000           ; wiping
G1 X110 Y174 F4000           ; wiping
G1 X100 Y172 F4000           ; wiping
G1 X110 Y174 F4000           ; wiping
G1 X100 Y172 F4000           ; wiping
G1 X110 Y174 F4000           ; wiping
G1 X115 Y172 Z-0.5 F1000     ; wipe slower and bury noz in cleanish area
G1 Z10                       ; raise z
G28 X0 Y0                    ; home x and y
M109 S140                    ; set to probing temp
M204 S300                    ; Set probing acceleration
G29                          ; Probe
M204 S2000                   ; Restore standard acceleration
G1 X5 Y15 Z10 F5000          ; get out the way
G4 S1                        ; pause
M400                         ; clear buffer
M109 S205    ; set extruder temp and wait
G4 S15                       ; wait for bed to temp up
G1 Z2 E0 F75                 ; extrude filament back into nozzle
M140 S60; get bed temping up during first layer

;Layer count: 127
;LAYER:0
M107
G0 F10500 X67.273 Y67.467 Z0.425
G0 X67.328 Y67.474
;TYPE:SKIRT
G1 F900 X67.328 Y69.181 E0.07108
G1 X69.988 Y69.181 E0.18183
G1 X69.988 Y111.776 E1.95540
G1 X64.535 Y112.413 E2.18400
G1 X74.175 Y114.668 E2.59622
G1 X81.633 Y112.924 E2.91514
G1 X80.997 Y112.849 E2.94180
G1 X76.182 Y112.283 E3.14367
G1 X76.182 Y69.692 E4.91707
G1 X78.841 Y69.692 E5.02779
G1 X78.841 Y67.978 E5.09915
G1 X78.877 Y67.974 E5.10066
G1 X72.005 Y66.348 E5.39470
G1 X67.273 Y67.467 E5.59716
G1 X67.328 Y67.474 E5.59947
G0 F10500 X74.165 Y54.574
G1 F900 X78.852 Y53.465 E5.80002
G1 X77.865 Y53.164 E5.84298
G1 X76.557 Y50.160 E5.97941
G1 X73.821 Y43.866 E6.26516
G1 X88.020 Y43.866 E6.85638
G1 X88.050 Y44.008 E6.86242
G1 X100.963 Y44.008 E7.40010
G1 X103.349 Y54.512 E7.84860
G1 X104.634 Y69.692 E8.48293
G1 X105.620 Y69.692 E8.52398
G1 X105.620 Y70.648 E8.56379
G1 X120.011 Y70.648 E9.16300
G1 X120.011 Y69.692 E9.20281
G1 X131.628 Y69.692 E9.68651
G1 X136.604 Y72.361 E9.92163
G1 X136.604 Y143.247 E12.87317
G1 X132.993 Y147.689 E13.11153
G1 X128.886 Y150.122 E13.31030
G1 X126.489 Y150.882 E13.41500
G1 X125.907 Y151.066 E13.44041
G1 X125.048 Y151.340 E13.47796
G1 X123.884 Y151.709 E13.52880
G1 X119.919 Y151.709 E13.69389
G1 X119.919 Y150.959 E13.72512
G1 X107.522 Y150.959 E14.24131
G1 X107.522 Y151.709 E14.27254
G1 X103.792 Y151.709 E14.42785
G1 X103.792 Y152.856 E14.47560
G1 X95.642 Y152.856 E14.81495
G1 X95.642 Y151.709 E14.86271
G1 X88.888 Y151.709 E15.14394
G1 X88.888 Y152.719 E15.18599
G1 X75.098 Y152.719 E15.76018
G1 X75.098 Y137.321 E16.40132
G1 X76.182 Y137.321 E16.44645
G1 X76.182 Y129.085 E16.78938
G1 X80.924 Y128.531 E16.98817
G1 X71.995 Y126.445 E17.36997
G1 X65.250 Y128.020 E17.65837
G1 X69.988 Y128.574 E17.85700
G1 X69.988 Y136.811 E18.19997
G1 X71.072 Y136.811 E18.24511
G1 X71.072 Y152.208 E18.88621
G1 X57.281 Y152.208 E19.46043
G1 X57.281 Y151.199 E19.50245
G1 X50.527 Y151.199 E19.78367
G1 X50.527 Y152.346 E19.83143
G1 X42.377 Y152.346 E20.17078
G1 X42.377 Y151.199 E20.21854
G1 X38.647 Y151.199 E20.37385
G1 X38.647 Y150.448 E20.40512
G1 X26.250 Y150.448 E20.92130
G1 X26.250 Y151.199 E20.95257
G1 X22.285 Y151.199 E21.11767
G1 X21.122 Y150.830 E21.16847
G1 X20.204 Y150.539 E21.20857
G1 X19.635 Y150.358 E21.23343
G1 X17.283 Y149.612 E21.33617
G1 X13.176 Y147.179 E21.53493
G1 X9.565 Y142.737 E21.77329
G1 X9.565 Y71.853 E24.72476
G1 X12.023 Y70.532 E24.84095
G1 X14.540 Y69.181 E24.95989
G1 X41.535 Y69.181 E26.08391
G1 X42.820 Y54.001 E26.71823
G1 X43.638 Y50.397 E26.87211
G1 X45.206 Y43.497 E27.16674
G1 X58.123 Y43.497 E27.70458
G1 X58.153 Y43.356 E27.71058
G1 X72.354 Y43.356 E28.30188
G1 X69.627 Y49.615 E28.58615
G1 X68.304 Y52.653 E28.72412
G1 X67.318 Y52.954 E28.76705
G1 X74.165 Y54.574 E29.06001
G1 F600 E27.56001
G1 Z0.525
G0 F10500 X70.875 Y58.162
;TYPE:WALL-INNER
G1 Z0.425
G1 F600 E29.06001
G1 F900 X70.875 Y62.249 E29.23019
G1 X69.118 Y62.664 E29.30536
G1 X69.173 Y62.635 E29.30795
G1 X69.619 Y62.269 E29.33197
G1 X69.985 Y61.823 E29.35600
G1 X70.256 Y61.314 E29.38001
G1 X70.423 Y60.764 E29.40394
G1 X70.481 Y60.189 E29.42800
G1 X70.423 Y59.615 E29.45202
G1 X70.256 Y59.063 E29.47604
G1 X69.985 Y58.555 E29.50001
G1 X69.619 Y58.109 E29.52403
G1 X69.201 Y57.766 E29.54655
G1 X70.875 Y58.162 E29.61817
G0 F10500 X66.965 Y57.303
G1 F900 X66.412 Y57.471 E29.64224
G1 X65.904 Y57.743 E29.66623
G1 X65.458 Y58.110 E29.69028
G1 X65.093 Y58.555 E29.71425
G1 X64.821 Y59.062 E29.73820
G1 X64.653 Y59.616 E29.76231
G1 X64.598 Y60.189 E29.78628
G1 X64.653 Y60.762 E29.81024
G1 X64.821 Y61.315 E29.83431
G1 X65.093 Y61.823 E29.85830
G1 X65.458 Y62.268 E29.88227
G1 X65.904 Y62.635 E29.90632
G1 X66.413 Y62.907 E29.93035
G1 X66.965 Y63.073 E29.95435
G1 X67.264 Y63.103 E29.96686
G1 X57.240 Y65.475 E30.39576
G1 X59.161 Y68.912 E30.55971
G1 X59.853 Y69.380 E30.59449
G1 X62.524 Y71.187 E30.72877
G1 X63.031 Y71.246 E30.75002
G1 X59.957 Y71.246 E30.87802
G1 X59.957 Y73.430 E30.96895
G1 X65.739 Y73.430 E31.20970
G1 X65.739 Y107.994 E32.64888
G1 X62.524 Y108.370 E32.78366
G1 X59.161 Y110.647 E32.95276
G1 X56.751 Y114.956 E33.15834
G1 X67.514 Y117.474 E33.61859
G1 X66.963 Y117.529 E33.64164
G1 X66.413 Y117.696 E33.66558
G1 X65.904 Y117.967 E33.68959
G1 X65.458 Y118.334 E33.71364
G1 X65.093 Y118.779 E33.73760
G1 X64.821 Y119.287 E33.76159
G1 X64.653 Y119.840 E33.78566
G1 X64.598 Y120.413 E33.80963
G1 X64.653 Y120.987 E33.83364
G1 X64.821 Y121.540 E33.85770
G1 X65.093 Y122.046 E33.88162
G1 X65.458 Y122.493 E33.90565
G1 X65.904 Y122.859 E33.92967
G1 X66.412 Y123.131 E33.95367
G1 X66.886 Y123.275 E33.97429
G1 X56.873 Y125.614 E34.40244
G1 X59.161 Y129.703 E34.59754
G1 X62.524 Y131.980 E34.76664
G1 X65.739 Y132.356 E34.90142
G1 X65.739 Y141.060 E35.26384
G1 X66.823 Y141.060 E35.30897
G1 X66.823 Y147.959 E35.59623
G1 X61.530 Y147.959 E35.81662
G1 X61.530 Y146.950 E35.85864
G1 X58.075 Y146.950 E36.00250
G1 X58.075 Y146.199 E36.03377
G1 X49.811 Y146.199 E36.37786
G1 X49.811 Y146.950 E36.40913
G1 X42.896 Y146.950 E36.69706
G1 X42.896 Y146.199 E36.72833
G1 X22.001 Y146.199 E37.59835
G1 X22.001 Y146.651 E37.61717
G1 X19.028 Y145.708 E37.74704
G1 X15.995 Y143.911 E37.89383
G1 X13.814 Y141.228 E38.03780
G1 X13.814 Y74.393 E40.82067
G1 X15.607 Y73.430 E40.90542
G1 X45.439 Y73.430 E42.14756
G1 X47.030 Y54.653 E42.93220
G1 X48.598 Y47.746 E43.22711
G1 X49.519 Y47.746 E43.26546
G1 X49.519 Y48.509 E43.29723
G1 X59.403 Y48.509 E43.70878
G1 X59.403 Y47.746 E43.74055
G1 X59.646 Y47.746 E43.75066
G1 X59.383 Y48.977 E43.80308
G1 X59.957 Y48.977 E43.82698
G1 X59.957 Y49.314 E43.84101
G1 X59.200 Y49.826 E43.87906
G1 X59.045 Y50.555 E43.91009
G1 X58.768 Y50.555 E43.92163
G1 X56.427 Y54.743 E44.12140
G1 X67.164 Y57.284 E44.58082
G1 X66.965 Y57.303 E44.58914
G1 F600 E43.08914
G1 Z0.525
G0 F10500 X64.953 Y49.179
G1 Z0.425
G1 F600 E44.58914
G1 F900 X64.953 Y47.605 E44.65468
G1 X65.868 Y47.605 E44.69278
G1 X65.190 Y49.161 E44.76345
G1 X62.164 Y50.084 E44.89518
G1 X63.195 Y49.386 E44.94702
G1 X64.953 Y49.179 E45.02072
G1 F600 E43.52072
G1 Z0.525
G0 F10500 X68.820 Y117.779
G1 Z0.425
G1 F600 E45.02072
G1 F900 X70.875 Y118.260 E45.10860
G1 X70.875 Y122.343 E45.27861
G1 X69.375 Y122.693 E45.34274
G1 X69.619 Y122.494 E45.35585
G1 X69.985 Y122.046 E45.37994
G1 X70.256 Y121.539 E45.40388
G1 X70.423 Y120.989 E45.42781
G1 X70.481 Y120.413 E45.45192
G1 X70.423 Y119.838 E45.47598
G1 X70.256 Y119.288 E45.49991
G1 X69.985 Y118.779 E45.52392
G1 X69.619 Y118.333 E45.54795
G1 X69.173 Y117.967 E45.57197
G1 X68.820 Y117.779 E45.58862
G0 F10500 X68.424 Y118.276
;TYPE:WALL-OUTER
G1 F900 X67.990 Y118.145 E45.60750
G1 X67.539 Y118.099 E45.62637
G1 X67.087 Y118.145 E45.64529
G1 X66.653 Y118.276 E45.66417
G1 X66.253 Y118.489 E45.68304
G1 X65.902 Y118.778 E45.70197
G1 X65.615 Y119.128 E45.72082
G1 X65.401 Y119.528 E45.73970
G1 X65.269 Y119.962 E45.75859
G1 X65.226 Y120.413 E45.77746
G1 X65.269 Y120.865 E45.79636
G1 X65.401 Y121.299 E45.81525
G1 X65.615 Y121.698 E45.83410
G1 X65.902 Y122.050 E45.85301
G1 X66.253 Y122.337 E45.87189
G1 X66.653 Y122.551 E45.89078
G1 X67.087 Y122.683 E45.90967
G1 X67.539 Y122.726 E45.92857
G1 X67.990 Y122.683 E45.94744
G1 X68.424 Y122.551 E45.96633
G1 X68.824 Y122.337 E45.98522
G1 X69.175 Y122.050 E46.00409
G1 X69.463 Y121.698 E46.02303
G1 X69.676 Y121.299 E46.04186
G1 X69.807 Y120.865 E46.06074
G1 X69.853 Y120.413 E46.07966
G1 X69.807 Y119.962 E46.09853
G1 X69.676 Y119.528 E46.11741
G1 X69.463 Y119.128 E46.13628
G1 X69.175 Y118.777 E46.15518
G1 X68.824 Y118.489 E46.17409
G1 X68.424 Y118.276 E46.19296
G0 F10500 X68.615 Y117.912
G0 X71.155 Y118.107
G0 X71.500 Y117.765
G1 F900 X71.500 Y122.838 E46.40419
G1 X57.824 Y126.034 E46.98897
G1 X59.634 Y129.269 E47.14332
G1 X62.748 Y131.377 E47.29990
G1 X66.364 Y131.800 E47.45148
G1 X66.364 Y140.435 E47.81103
G1 X67.448 Y140.435 E47.85616
G1 X67.448 Y148.584 E48.19547
G1 X60.905 Y148.584 E48.46791
G1 X60.905 Y147.575 E48.50992
G1 X57.450 Y147.575 E48.65378
G1 X57.450 Y146.824 E48.68505
G1 X50.436 Y146.824 E48.97710
G1 X50.436 Y147.575 E49.00837
G1 X46.903 Y147.575 E49.15548
G1 X46.903 Y148.722 E49.20324
G1 X46.001 Y148.722 E49.24079
G1 X46.001 Y147.575 E49.28855
G1 X42.271 Y147.575 E49.44386
G1 X42.271 Y146.824 E49.47513
G1 X22.626 Y146.824 E50.29311
G1 X22.626 Y147.506 E50.32151
G1 X18.774 Y146.283 E50.48978
G1 X15.581 Y144.392 E50.64430
G1 X13.189 Y141.450 E50.80218
G1 X13.189 Y74.020 E53.60983
G1 X15.452 Y72.805 E53.71678
G1 X44.865 Y72.805 E54.94147
G1 X46.410 Y54.555 E55.70408
G1 X48.099 Y47.121 E56.02151
G1 X50.144 Y47.121 E56.10666
G1 X50.144 Y47.884 E56.13843
G1 X51.913 Y47.884 E56.21209
G1 X51.913 Y47.121 E56.24386
G1 X52.433 Y47.121 E56.26551
G1 X52.433 Y47.884 E56.29728
G1 X54.201 Y47.884 E56.37089
G1 X54.201 Y47.121 E56.40266
G1 X54.721 Y47.121 E56.42431
G1 X54.721 Y47.884 E56.45608
G1 X56.489 Y47.884 E56.52970
G1 X56.489 Y47.121 E56.56147
G1 X57.009 Y47.121 E56.58312
G1 X57.009 Y47.884 E56.61489
G1 X58.778 Y47.884 E56.68855
G1 X58.778 Y47.121 E56.72032
G1 X60.418 Y47.121 E56.78860
G1 X60.155 Y48.352 E56.84102
G1 X60.581 Y48.352 E56.85876
G1 X60.582 Y49.647 E56.91268
G1 X59.759 Y50.203 E56.95403
G1 X59.551 Y51.180 E56.99562
G1 X59.135 Y51.180 E57.01295
G1 X57.376 Y54.325 E57.16299
G1 X71.500 Y57.668 E57.76733
G1 X71.500 Y62.743 E57.97864
G1 X58.189 Y65.893 E58.54819
G1 X59.634 Y68.477 E58.67147
G1 X62.748 Y70.584 E58.82802
G1 X63.704 Y70.696 E58.86810
G1 X63.704 Y71.871 E58.91702
G1 X60.582 Y71.871 E59.04701
G1 X60.582 Y72.805 E59.08590
G1 X66.364 Y72.805 E59.32666
G1 X66.364 Y108.550 E60.81500
G1 X62.748 Y108.973 E60.96659
G1 X59.634 Y111.081 E61.12317
G1 X57.701 Y114.536 E61.28801
G1 X71.500 Y117.765 E61.87810
G0 F10500 X71.155 Y118.107
G0 X57.042 Y114.827
G0 X59.250 Y110.729
G0 X62.567 Y108.484
G0 X60.128 Y71.417
G0 X57.531 Y65.603
G0 X67.499 Y62.912
G0 X67.539 Y62.503
G1 F900 X67.990 Y62.457 E61.89697
G1 X68.424 Y62.327 E61.91584
G1 X68.824 Y62.113 E61.93472
G1 X69.175 Y61.825 E61.95363
G1 X69.463 Y61.474 E61.97253
G1 X69.676 Y61.074 E61.99140
G1 X69.807 Y60.640 E62.01028
G1 X69.853 Y60.189 E62.02916
G1 X69.807 Y59.738 E62.04803
G1 X69.676 Y59.303 E62.06695
G1 X69.463 Y58.904 E62.08578
G1 X69.175 Y58.553 E62.10469
G1 X68.824 Y58.265 E62.12359
G1 X68.424 Y58.051 E62.14248
G1 X67.990 Y57.919 E62.16137
G1 X67.539 Y57.876 E62.18023
G1 X67.087 Y57.919 E62.19914
G1 X66.653 Y58.051 E62.21803
G1 X66.253 Y58.265 E62.23691
G1 X65.902 Y58.554 E62.25585
G1 X65.615 Y58.904 E62.27469
G1 X65.401 Y59.303 E62.29354
G1 X65.269 Y59.738 E62.31247
G1 X65.226 Y60.189 E62.33134
G1 X65.269 Y60.640 E62.35020
G1 X65.401 Y61.074 E62.36909
G1 X65.615 Y61.474 E62.38798
G1 X65.902 Y61.824 E62.40682
G1 X66.253 Y62.113 E62.42576
G1 X66.653 Y62.327 E62.44464
G1 X67.087 Y62.457 E62.46351
G1 X67.539 Y62.503 E62.48243
G1 F600 E60.98243
G1 Z0.525
G0 F10500 X65.648 Y49.675
G1 Z0.425
G1 F600 E62.48243
G1 F900 X61.200 Y51.032 E62.67606
G1 X61.205 Y49.978 E62.71995
G1 X62.971 Y48.783 E62.80873
G1 X64.328 Y48.623 E62.86563
G1 X64.328 Y47.728 E62.90289
G1 X61.203 Y47.728 E63.03301
G1 X61.200 Y46.980 E63.06416
G1 X66.822 Y46.980 E63.29824
G1 X65.648 Y49.675 E63.42064
G1 F600 E61.92064
G1 Z0.525
G0 F10500 X70.381 Y61.542
;TYPE:FILL
G1 Z0.425
G1 F600 E63.42064
G1 F900 X70.655 Y61.816 E63.43678
G0 F10500 X70.651 Y62.421
G0 X57.531 Y65.603
G0 X59.250 Y68.830
G0 X62.568 Y71.073
G0 X60.128 Y71.417
G0 X60.128 Y73.259
G0 X57.042 Y114.827
G0 X70.437 Y118.036
G0 X70.424 Y121.689
G1 F900 X70.656 Y121.921 E63.45044
G0 F10500 X68.089 Y123.187
G0 X65.482 Y123.377
;TYPE:SKIN
G1 F900 X57.447 Y115.342 E63.92358
G0 F10500 X56.700 Y114.595
G1 F900 X15.753 Y73.648 E66.33474
G0 F10500 X15.146 Y73.925
G1 F900 X64.766 Y123.544 E69.25658
G0 F10500 X64.049 Y123.711
G1 F900 X14.572 Y74.234 E72.17003
G0 F10500 X14.032 Y74.579
G1 F900 X63.332 Y123.879 E75.07306
G0 F10500 X62.615 Y124.046
G1 F900 X14.032 Y75.463 E77.93387
G0 F10500 X14.032 Y76.347
G1 F900 X61.899 Y124.213 E80.75249
G0 F10500 X61.183 Y124.381
G1 F900 X14.032 Y77.230 E83.52897
G0 F10500 X14.032 Y78.114
G1 F900 X60.466 Y124.548 E86.26324
G0 F10500 X64.622 Y121.633
G1 F900 X58.601 Y115.612 E86.61778
G0 F10500 X59.755 Y115.882
G1 F900 X64.388 Y120.515 E86.89060
G0 F10500 X57.165 Y125.743
G0 X59.250 Y129.622
G0 X60.821 Y131.091
G1 F900 X65.519 Y135.789 E87.16724
G0 F10500 X65.519 Y136.673
G1 F900 X14.032 Y85.185 E90.19908
G0 F10500 X14.032 Y86.069
G1 F900 X65.519 Y137.557 E93.23092
G0 F10500 X65.519 Y138.440
G1 F900 X14.032 Y86.953 E96.26273
G0 F10500 X14.032 Y87.837
G1 F900 X65.519 Y139.324 E99.29454
G0 F10500 X65.519 Y134.905
G1 F900 X62.853 Y132.238 E99.45155
G0 F10500 X63.854 Y132.356
G1 F900 X65.519 Y134.021 E99.54960
G0 F10500 X65.519 Y133.137
G1 F900 X64.855 Y132.472 E99.58872
G0 F10500 X62.567 Y131.866
G0 X59.250 Y129.622
G0 X58.245 Y128.515
G1 F900 X14.032 Y84.301 E102.19223
G0 F10500 X14.032 Y83.418
G1 F900 X57.121 Y126.507 E104.72953
G0 F10500 X56.883 Y125.385
G1 F900 X14.032 Y82.534 E107.25281
G0 F10500 X14.032 Y81.650
G1 F900 X57.600 Y125.218 E109.81831
G0 F10500 X58.316 Y125.050
G1 F900 X14.032 Y80.766 E112.42597
G0 F10500 X14.032 Y88.721
G1 F900 X65.519 Y140.208 E115.45778
G0 F10500 X65.519 Y141.092
G1 F900 X14.032 Y89.605 E118.48959
G0 F10500 X14.032 Y90.489
G1 F900 X66.604 Y143.061 E121.58529
G0 F10500 X66.604 Y143.945
G1 F900 X14.032 Y91.373 E124.68099
G0 F10500 X14.032 Y92.256
G1 F900 X66.604 Y144.828 E127.77669
G0 F10500 X66.604 Y145.712
G1 F900 X14.032 Y93.140 E130.87239
G0 F10500 X14.032 Y94.024
G1 F900 X66.604 Y146.596 E133.96809
G0 F10500 X66.604 Y147.480
G1 F900 X14.032 Y94.908 E137.06379
G0 F10500 X14.032 Y95.792
G1 F900 X65.979 Y147.739 E140.12268
G0 F10500 X65.095 Y147.739
G1 F900 X14.032 Y96.676 E143.12953
G0 F10500 X14.032 Y97.560
G1 F900 X64.211 Y147.739 E146.08431
G0 F10500 X63.327 Y147.739
G1 F900 X14.032 Y98.444 E148.98705
G0 F10500 X14.032 Y99.327
G1 F900 X61.434 Y146.730 E151.77834
G0 F10500 X61.748 Y147.044
G1 F900 X62.443 Y147.739 E151.81927
G0 F10500 X60.550 Y146.730
G1 F900 X14.032 Y100.211 E154.55851
G0 F10500 X14.032 Y101.095
G1 F900 X59.667 Y146.730 E157.24572
G0 F10500 X58.783 Y146.730
G1 F900 X58.293 Y146.240 E157.27458
G0 F10500 X58.032 Y145.979
G1 F900 X14.032 Y101.979 E159.86551
G0 F10500 X14.032 Y102.863
G1 F900 X57.148 Y145.979 E162.40440
G0 F10500 X56.264 Y145.979
G1 F900 X14.032 Y103.747 E164.89123
G0 F10500 X14.032 Y104.631
G1 F900 X55.380 Y145.979 E167.32600
G0 F10500 X54.496 Y145.979
G1 F900 X14.032 Y105.515 E169.70872
G0 F10500 X14.032 Y106.399
G1 F900 X53.612 Y145.979 E172.03939
G0 F10500 X52.728 Y145.979
G1 F900 X14.032 Y107.282 E174.31803
G0 F10500 X14.032 Y108.166
G1 F900 X51.845 Y145.979 E176.54465
G0 F10500 X50.961 Y145.979
G1 F900 X14.032 Y109.050 E178.71921
G0 F10500 X14.032 Y109.934
G1 F900 X50.077 Y145.979 E180.84172
G0 F10500 X49.592 Y146.378
G1 F900 X14.032 Y110.818 E182.93567
G0 F10500 X14.032 Y111.702
G1 F900 X49.060 Y146.730 E184.99829
G0 F10500 X48.176 Y146.730
G1 F900 X14.032 Y112.586 E187.00886
G0 F10500 X14.032 Y113.470
G1 F900 X47.292 Y146.730 E188.96737
G0 F10500 X46.408 Y146.730
G1 F900 X14.032 Y114.354 E190.87383
G0 F10500 X14.032 Y115.237
G1 F900 X45.524 Y146.730 E192.72826
G0 F10500 X44.641 Y146.730
G1 F900 X14.032 Y116.121 E194.53067
G0 F10500 X14.032 Y117.005
G1 F900 X43.006 Y145.979 E196.23681
G0 F10500 X43.115 Y146.088
G1 F900 X43.757 Y146.730 E196.27461
G0 F10500 X42.122 Y145.979
G1 F900 X14.032 Y117.889 E197.92869
G0 F10500 X14.032 Y118.773
G1 F900 X41.238 Y145.979 E199.53071
G0 F10500 X40.354 Y145.979
G1 F900 X14.032 Y119.657 E201.08068
G0 F10500 X14.032 Y120.541
G1 F900 X39.470 Y145.979 E202.57860
G0 F10500 X38.586 Y145.979
G1 F900 X14.032 Y121.425 E204.02446
G0 F10500 X14.032 Y122.308
G1 F900 X37.702 Y145.979 E205.41830
G0 F10500 X36.819 Y145.979
G1 F900 X14.032 Y123.192 E206.76011
G0 F10500 X14.032 Y124.076
G1 F900 X35.935 Y145.979 E208.04986
G0 F10500 X35.051 Y145.979
G1 F900 X14.032 Y124.960 E209.28757
G0 F10500 X14.032 Y125.844
G1 F900 X34.167 Y145.979 E210.47322
G0 F10500 X33.283 Y145.979
G1 F900 X14.032 Y126.728 E211.60681
G0 F10500 X14.032 Y127.612
G1 F900 X32.399 Y145.979 E212.68835
G0 F10500 X31.515 Y145.979
G1 F900 X14.032 Y128.496 E213.71784
G0 F10500 X14.032 Y129.380
G1 F900 X30.631 Y145.979 E214.69527
G0 F10500 X29.747 Y145.979
G1 F900 X14.032 Y130.263 E215.62067
G0 F10500 X14.032 Y131.147
G1 F900 X28.864 Y145.979 E216.49406
G0 F10500 X27.980 Y145.979
G1 F900 X14.032 Y132.031 E217.31538
G0 F10500 X14.032 Y132.915
G1 F900 X27.096 Y145.979 E218.08466
G0 F10500 X26.212 Y145.979
G1 F900 X14.032 Y133.799 E218.80187
G0 F10500 X14.032 Y134.683
G1 F900 X25.328 Y145.979 E219.46704
G0 F10500 X24.444 Y145.979
G1 F900 X14.032 Y135.567 E220.08015
G0 F10500 X14.032 Y136.451
G1 F900 X23.560 Y145.979 E220.64120
G0 F10500 X22.676 Y145.979
G1 F900 X14.032 Y137.334 E221.15024
G0 F10500 X14.032 Y138.218
G1 F900 X21.793 Y145.979 E221.60724
G0 F10500 X21.047 Y146.117
G1 F900 X14.032 Y139.102 E222.02032
G0 F10500 X14.032 Y139.986
G1 F900 X19.753 Y145.707 E222.35720
G0 F10500 X18.012 Y144.850
G1 F900 X14.032 Y140.870 E222.59156
G0 F10500 X59.033 Y124.883
G1 F900 X14.032 Y79.882 E225.24144
G0 F10500 X14.032 Y78.998
G1 F900 X59.749 Y124.715 E227.93349
G0 F10500 X64.463 Y119.706
G1 F900 X60.909 Y116.152 E228.14277
G0 F10500 X62.063 Y116.423
G1 F900 X64.696 Y119.055 E228.29778
G0 F10500 X65.032 Y118.508
G1 F900 X63.217 Y116.693 E228.40466
G0 F10500 X64.371 Y116.963
G1 F900 X65.457 Y118.049 E228.46860
G0 F10500 X65.973 Y117.680
G1 F900 X65.525 Y117.233 E228.49496
G0 F10500 X57.042 Y114.827
G0 X59.250 Y110.729
G0 X60.451 Y109.507
G1 F900 X24.592 Y73.648 E230.60651
G0 F10500 X23.708 Y73.648
G1 F900 X59.924 Y109.864 E232.73909
G0 F10500 X59.396 Y110.220
G1 F900 X22.824 Y73.648 E234.89263
G0 F10500 X21.940 Y73.648
G1 F900 X58.920 Y110.628 E237.07020
G0 F10500 X58.603 Y111.195
G1 F900 X21.056 Y73.648 E239.28115
G0 F10500 X20.173 Y73.648
G1 F900 X58.286 Y111.761 E241.52543
G0 F10500 X57.969 Y112.328
G1 F900 X19.289 Y73.648 E243.80310
G0 F10500 X18.405 Y73.648
G1 F900 X57.651 Y112.895 E246.11413
G0 F10500 X57.335 Y113.462
G1 F900 X17.521 Y73.648 E248.45857
G0 F10500 X16.637 Y73.648
G1 F900 X57.017 Y114.028 E250.83635
G0 F10500 X59.250 Y110.729
G0 X60.978 Y109.150
G1 F900 X25.476 Y73.648 E252.92688
G0 F10500 X26.360 Y73.648
G1 F900 X61.505 Y108.794 E254.99642
G0 F10500 X62.032 Y108.436
G1 F900 X27.244 Y73.648 E257.04491
G0 F10500 X28.128 Y73.648
G1 F900 X62.616 Y108.137 E259.07577
G0 F10500 X63.407 Y108.044
G1 F900 X29.011 Y73.648 E261.10117
G0 F10500 X29.895 Y73.648
G1 F900 X64.199 Y107.952 E263.12116
G0 F10500 X64.990 Y107.859
G1 F900 X30.779 Y73.648 E265.13568
G0 F10500 X31.663 Y73.648
G1 F900 X65.520 Y107.505 E267.12935
G0 F10500 X65.520 Y106.621
G1 F900 X32.547 Y73.648 E269.07096
G0 F10500 X33.431 Y73.648
G1 F900 X65.520 Y105.737 E270.96052
G0 F10500 X65.520 Y104.854
G1 F900 X34.315 Y73.648 E272.79805
G0 F10500 X35.199 Y73.648
G1 F900 X65.520 Y103.970 E274.58353
G0 F10500 X65.520 Y103.086
G1 F900 X36.082 Y73.648 E276.31699
G0 F10500 X36.966 Y73.648
G1 F900 X65.520 Y102.202 E277.99839
G0 F10500 X65.520 Y101.318
G1 F900 X37.850 Y73.648 E279.62774
G0 F10500 X38.734 Y73.648
G1 F900 X65.520 Y100.434 E281.20503
G0 F10500 X65.520 Y99.550
G1 F900 X39.618 Y73.648 E282.73027
G0 F10500 X40.502 Y73.648
G1 F900 X65.520 Y98.666 E284.20345
G0 F10500 X65.520 Y97.782
G1 F900 X41.386 Y73.648 E285.62458
G0 F10500 X42.270 Y73.648
G1 F900 X65.520 Y96.899 E286.99368
G0 F10500 X65.520 Y96.015
G1 F900 X43.154 Y73.648 E288.31073
G0 F10500 X44.037 Y73.648
G1 F900 X65.520 Y95.131 E289.57576
G0 F10500 X65.520 Y94.247
G1 F900 X44.921 Y73.648 E290.78873
G0 F10500 X45.652 Y73.495
G1 F900 X65.520 Y93.363 E291.95866
G0 F10500 X65.520 Y92.479
G1 F900 X45.721 Y72.680 E293.12452
G0 F10500 X45.790 Y71.866
G1 F900 X65.520 Y91.595 E294.28629
G0 F10500 X65.520 Y90.711
G1 F900 X45.860 Y71.051 E295.44397
G0 F10500 X45.928 Y70.236
G1 F900 X65.520 Y89.828 E296.59764
G0 F10500 X65.520 Y88.944
G1 F900 X45.998 Y69.421 E297.74723
G0 F10500 X46.067 Y68.607
G1 F900 X65.520 Y88.060 E298.89271
G0 F10500 X65.520 Y87.176
G1 F900 X46.135 Y67.791 E300.03420
G0 F10500 X46.205 Y66.977
G1 F900 X65.520 Y86.292 E301.17156
G0 F10500 X65.520 Y85.408
G1 F900 X46.274 Y66.162 E302.30486
G0 F10500 X46.343 Y65.347
G1 F900 X65.520 Y84.524 E303.43410
G0 F10500 X65.520 Y83.640
G1 F900 X46.412 Y64.532 E304.55927
G0 F10500 X46.481 Y63.718
G1 F900 X65.520 Y82.756 E305.68035
G0 F10500 X65.520 Y81.873
G1 F900 X46.550 Y62.902 E306.79743
G0 F10500 X46.619 Y62.088
G1 F900 X65.520 Y80.989 E307.91041
G0 F10500 X65.520 Y80.105
G1 F900 X46.688 Y61.273 E309.01934
G0 F10500 X46.757 Y60.458
G1 F900 X59.737 Y73.438 E309.78366
G0 F10500 X59.947 Y73.648
G1 F900 X65.520 Y79.221 E310.11183
G0 F10500 X65.520 Y78.337
G1 F900 X60.831 Y73.648 E310.38794
G0 F10500 X61.715 Y73.648
G1 F900 X65.520 Y77.453 E310.61200
G0 F10500 X65.520 Y76.569
G1 F900 X62.599 Y73.648 E310.78400
G0 F10500 X63.483 Y73.648
G1 F900 X65.520 Y75.685 E310.90395
G0 F10500 X65.520 Y74.801
G1 F900 X64.367 Y73.648 E310.97184
G0 F10500 X65.251 Y73.648
G1 F900 X65.520 Y73.918 E310.98771
G0 F10500 X60.128 Y73.259
G0 X60.128 Y71.417
G0 X61.681 Y70.963
G1 F900 X61.430 Y70.712 E311.00249
G0 F10500 X60.860 Y71.026
G1 F900 X47.033 Y57.199 E311.81670
G0 F10500 X46.964 Y58.013
G1 F900 X59.976 Y71.026 E312.58294
G0 F10500 X59.737 Y71.670
G1 F900 X46.896 Y58.829 E313.33908
G0 F10500 X46.826 Y59.643
G1 F900 X59.737 Y72.554 E314.09934
G0 F10500 X57.997 Y67.279
G1 F900 X47.103 Y56.384 E314.74086
G0 F10500 X47.171 Y55.569
G1 F900 X56.925 Y65.323 E315.31523
G0 F10500 X57.640 Y65.154
G1 F900 X47.241 Y54.754 E315.92760
G0 F10500 X47.395 Y54.025
G1 F900 X58.355 Y64.985 E316.57298
G0 F10500 X59.070 Y64.816
G1 F900 X47.560 Y53.305 E317.25078
G0 F10500 X47.723 Y52.585
G1 F900 X59.785 Y64.647 E317.96105
G0 F10500 X60.500 Y64.478
G1 F900 X47.886 Y51.864 E318.70382
G0 F10500 X48.050 Y51.145
G1 F900 X61.214 Y64.309 E319.47898
G0 F10500 X61.929 Y64.139
G1 F900 X48.214 Y50.424 E320.28659
G0 F10500 X48.377 Y49.703
G1 F900 X62.644 Y63.970 E321.12670
G0 F10500 X63.358 Y63.801
G1 F900 X48.540 Y48.983 E321.99926
G0 F10500 X48.704 Y48.263
G1 F900 X64.073 Y63.632 E322.90426
G0 F10500 X64.788 Y63.463
G1 F900 X56.251 Y54.925 E323.40699
G0 F10500 X56.136 Y54.811
G1 F900 X50.053 Y48.728 E323.76519
G0 F10500 X50.937 Y48.728
G1 F900 X56.453 Y54.244 E324.09000
G0 F10500 X56.770 Y53.677
G1 F900 X51.821 Y48.728 E324.38142
G0 F10500 X52.704 Y48.728
G1 F900 X57.087 Y53.110 E324.63948
G0 F10500 X57.404 Y52.543
G1 F900 X53.588 Y48.728 E324.86416
G0 F10500 X54.472 Y48.728
G1 F900 X57.721 Y51.976 E325.05545
G0 F10500 X58.037 Y51.409
G1 F900 X55.356 Y48.728 E325.21332
G0 F10500 X56.240 Y48.728
G1 F900 X58.355 Y50.843 E325.33786
G0 F10500 X58.731 Y50.335
G1 F900 X57.124 Y48.728 E325.43249
G0 F10500 X58.008 Y48.728
G1 F900 X58.998 Y49.718 E325.49078
G0 F10500 X59.512 Y49.348
G1 F900 X59.257 Y49.093 E325.49970
G1 X58.892 Y48.728 E325.52119
G0 F10500 X56.718 Y54.615
G0 X57.409 Y55.200
G1 F900 X65.503 Y63.294 E325.99780
G0 F10500 X66.060 Y62.967
G1 F900 X66.148 Y63.055 E326.00299
G0 F10500 X64.761 Y61.668
G1 F900 X58.567 Y55.474 E326.36772
G0 F10500 X59.725 Y55.748
G1 F900 X64.400 Y60.423 E326.64301
G0 F10500 X64.435 Y59.575
G1 F900 X60.883 Y56.022 E326.85220
G0 F10500 X62.041 Y56.297
G1 F900 X64.653 Y58.909 E327.00600
G0 F10500 X64.978 Y58.349
G1 F900 X63.199 Y56.571 E327.11073
G0 F10500 X64.357 Y56.845
G1 F900 X65.391 Y57.879 E327.17162
G0 F10500 X65.894 Y57.498
G1 F900 X65.515 Y57.119 E327.19393
G0 F10500 X64.711 Y60.189
G0 X65.188 Y61.759
G0 X57.531 Y65.603
G0 X59.250 Y68.830
G0 X62.568 Y71.073
G0 X60.128 Y71.417
G0 X60.128 Y73.259
G0 X57.042 Y114.827
G0 X71.031 Y118.137
G0 X71.031 Y122.466
G0 X57.165 Y125.743
G0 X59.250 Y129.622
G0 X62.567 Y131.866
G0 X65.705 Y141.278
G1 F900 X66.604 Y142.177 E327.24687
G1 F600 E325.74687
G1 Z0.525
G0 F10500 X79.347 Y141.570
;TYPE:WALL-INNER
G1 Z0.425
G1 F600 E327.24687
G1 F900 X80.431 Y141.570 E327.29201
G1 X80.431 Y132.867 E327.65438
G1 X83.645 Y132.490 E327.78912
G1 X87.008 Y130.214 E327.95821
G1 X89.295 Y126.124 E328.15332
G1 X79.282 Y123.785 E328.58147
G1 X79.757 Y123.642 E328.60212
G1 X80.267 Y123.369 E328.62621
G1 X80.712 Y123.003 E328.65020
G1 X81.076 Y122.558 E328.67414
G1 X81.348 Y122.050 E328.69813
G1 X81.516 Y121.497 E328.72219
G1 X81.571 Y120.924 E328.74616
G1 X81.516 Y120.351 E328.77013
G1 X81.348 Y119.798 E328.79420
G1 X81.076 Y119.290 E328.81819
G1 X80.712 Y118.845 E328.84213
G1 X80.267 Y118.479 E328.86612
G1 X79.758 Y118.206 E328.89017
G1 X79.205 Y118.038 E328.91423
G1 X78.650 Y117.985 E328.93745
G1 X89.418 Y115.466 E329.39791
G1 X87.008 Y111.157 E329.60348
G1 X83.645 Y108.881 E329.77257
G1 X80.431 Y108.504 E329.90731
G1 X80.431 Y73.941 E331.34644
G1 X86.212 Y73.941 E331.58715
G1 X86.212 Y71.757 E331.67809
G1 X83.146 Y71.757 E331.80575
G1 X83.645 Y71.698 E331.82667
G1 X86.212 Y69.961 E331.95573
G1 X87.008 Y69.421 E331.99578
G1 X88.118 Y67.437 E332.09044
G1 X88.927 Y65.985 E332.15964
G1 X78.905 Y63.614 E332.58846
G1 X79.205 Y63.585 E332.60101
G1 X79.758 Y63.417 E332.62507
G1 X80.266 Y63.145 E332.64907
G1 X80.712 Y62.779 E332.67309
G1 X81.076 Y62.332 E332.69709
G1 X81.348 Y61.826 E332.72101
G1 X81.516 Y61.272 E332.74512
G1 X81.571 Y60.699 E332.76909
G1 X81.516 Y60.126 E332.79305
G1 X81.348 Y59.573 E332.81712
G1 X81.076 Y59.065 E332.84111
G1 X80.712 Y58.620 E332.86505
G1 X80.266 Y58.253 E332.88910
G1 X79.757 Y57.982 E332.91311
G1 X79.207 Y57.815 E332.93704
G1 X79.007 Y57.795 E332.94541
G1 X89.744 Y55.254 E333.40483
G1 X87.401 Y51.065 E333.60468
G1 X87.124 Y51.065 E333.61621
G1 X86.969 Y50.336 E333.64725
G1 X86.216 Y49.827 E333.68509
G1 X86.215 Y49.488 E333.69920
G1 X86.788 Y49.488 E333.72306
G1 X86.524 Y48.257 E333.77549
G1 X86.766 Y48.257 E333.78556
G1 X86.766 Y49.020 E333.81733
G1 X96.650 Y49.020 E334.22888
G1 X96.650 Y48.257 E334.26065
G1 X97.571 Y48.257 E334.29900
G1 X99.139 Y55.164 E334.59391
G1 X100.730 Y73.941 E335.37855
G1 X101.371 Y73.941 E335.40524
G1 X101.371 Y74.897 E335.44504
G1 X124.260 Y74.897 E336.39809
G1 X124.260 Y73.941 E336.43790
G1 X130.560 Y73.941 E336.70022
G1 X132.355 Y74.904 E336.78504
G1 X132.355 Y141.738 E339.56787
G1 X130.174 Y144.421 E339.71184
G1 X127.140 Y146.218 E339.85866
G1 X124.168 Y147.161 E339.98849
G1 X124.168 Y146.710 E340.00727
G1 X103.273 Y146.710 E340.87729
G1 X103.273 Y147.460 E340.90852
G1 X96.358 Y147.460 E341.19645
G1 X96.358 Y146.710 E341.22768
G1 X88.094 Y146.710 E341.57177
G1 X88.094 Y147.460 E341.60300
G1 X84.639 Y147.460 E341.74686
G1 X84.639 Y148.470 E341.78891
G1 X79.347 Y148.470 E342.00926
G1 X79.347 Y141.570 E342.29656
G0 F10500 X80.260 Y141.399
G0 X89.004 Y126.253
G0 X76.592 Y123.284
G0 X76.551 Y123.004
G1 F900 X76.794 Y123.203 E342.30964
G1 X75.295 Y122.853 E342.37374
G1 X75.295 Y118.770 E342.54374
G1 X77.350 Y118.289 E342.63162
G1 X76.997 Y118.478 E342.64829
G1 X76.551 Y118.844 E342.67232
G1 X76.185 Y119.290 E342.69634
G1 X75.914 Y119.799 E342.72035
G1 X75.747 Y120.349 E342.74428
G1 X75.689 Y120.924 E342.76835
G1 X75.747 Y121.499 E342.79241
G1 X75.914 Y122.049 E342.81634
G1 X76.185 Y122.558 E342.84035
G1 X76.551 Y123.004 E342.86438
G0 F10500 X75.803 Y120.924
G0 X76.279 Y119.354
G0 X76.585 Y118.347
G0 X89.126 Y115.337
G0 X86.919 Y111.239
G0 X83.602 Y108.995
G0 X86.041 Y71.928
G0 X88.636 Y66.114
G0 X76.997 Y63.145
G1 F900 X77.055 Y63.176 E342.86712
G1 X75.295 Y62.760 E342.94242
G1 X75.295 Y58.673 E343.11259
G1 X76.967 Y58.278 E343.18413
G1 X76.551 Y58.619 E343.20652
G1 X76.185 Y59.065 E343.23055
G1 X75.914 Y59.574 E343.25456
G1 X75.747 Y60.124 E343.27849
G1 X75.689 Y60.699 E343.30255
G1 X75.747 Y61.273 E343.32658
G1 X75.914 Y61.825 E343.35059
G1 X76.185 Y62.332 E343.37453
G1 X76.551 Y62.780 E343.39861
G1 X76.997 Y63.145 E343.42261
G0 F10500 X77.346 Y62.623
;TYPE:WALL-OUTER
G1 F900 X77.746 Y62.837 E343.44150
G1 X78.180 Y62.969 E343.46039
G1 X78.631 Y63.012 E343.47925
G1 X79.083 Y62.969 E343.49816
G1 X79.517 Y62.837 E343.51705
G1 X79.917 Y62.623 E343.53593
G1 X80.267 Y62.335 E343.55481
G1 X80.554 Y61.984 E343.57369
G1 X80.768 Y61.585 E343.59254
G1 X80.900 Y61.150 E343.61147
G1 X80.943 Y60.699 E343.63033
G1 X80.900 Y60.248 E343.64919
G1 X80.768 Y59.814 E343.66808
G1 X80.554 Y59.414 E343.68697
G1 X80.267 Y59.064 E343.70582
G1 X79.917 Y58.775 E343.72472
G1 X79.517 Y58.562 E343.74359
G1 X79.083 Y58.431 E343.76246
G1 X78.631 Y58.385 E343.78138
G1 X78.180 Y58.431 E343.80026
G1 X77.746 Y58.562 E343.81913
G1 X77.346 Y58.775 E343.83800
G1 X76.995 Y59.063 E343.85691
G1 X76.707 Y59.414 E343.87581
G1 X76.494 Y59.814 E343.89468
G1 X76.363 Y60.248 E343.91356
G1 X76.317 Y60.699 E343.93243
G1 X76.363 Y61.150 E343.95131
G1 X76.494 Y61.585 E343.97022
G1 X76.707 Y61.984 E343.98906
G1 X76.995 Y62.336 E344.00799
G1 X77.346 Y62.623 E344.02687
G0 F10500 X77.151 Y62.986
G0 X75.016 Y62.913
G0 X74.670 Y63.254
G1 F900 X74.670 Y58.179 E344.23819
G1 X88.794 Y54.836 E344.84253
G1 X87.034 Y51.690 E344.99263
G1 X86.618 Y51.690 E345.00995
G1 X86.410 Y50.713 E345.05154
G1 X85.592 Y50.160 E345.09265
G1 X85.587 Y48.874 E345.14620
G1 X85.587 Y48.863 E345.14666
G1 X86.015 Y48.863 E345.16448
G1 X85.751 Y47.632 E345.21690
G1 X87.391 Y47.632 E345.28519
G1 X87.391 Y48.395 E345.31696
G1 X89.160 Y48.395 E345.39061
G1 X89.160 Y47.632 E345.42238
G1 X89.680 Y47.632 E345.44404
G1 X89.680 Y48.395 E345.47581
G1 X91.448 Y48.395 E345.54942
G1 X91.448 Y47.632 E345.58119
G1 X91.968 Y47.632 E345.60284
G1 X91.968 Y48.395 E345.63461
G1 X93.736 Y48.395 E345.70823
G1 X93.736 Y47.632 E345.74000
G1 X94.256 Y47.632 E345.76165
G1 X94.256 Y48.395 E345.79342
G1 X96.025 Y48.395 E345.86708
G1 X96.025 Y47.632 E345.89885
G1 X98.070 Y47.632 E345.98400
G1 X99.759 Y55.066 E346.30142
G1 X101.304 Y73.316 E347.06403
G1 X101.996 Y73.316 E347.09285
G1 X101.996 Y74.272 E347.13265
G1 X123.635 Y74.272 E348.03366
G1 X123.635 Y73.316 E348.07346
G1 X130.717 Y73.316 E348.36834
G1 X132.980 Y74.530 E348.47527
G1 X132.980 Y141.960 E351.28292
G1 X130.588 Y144.902 E351.44080
G1 X127.395 Y146.793 E351.59531
G1 X123.543 Y148.016 E351.76359
G1 X123.543 Y147.335 E351.79195
G1 X103.898 Y147.335 E352.60992
G1 X103.898 Y148.085 E352.64115
G1 X100.168 Y148.085 E352.79646
G1 X100.168 Y149.232 E352.84422
G1 X99.266 Y149.232 E352.88178
G1 X99.266 Y148.085 E352.92954
G1 X95.733 Y148.085 E353.07664
G1 X95.733 Y147.335 E353.10787
G1 X88.719 Y147.335 E353.39992
G1 X88.719 Y148.085 E353.43115
G1 X85.264 Y148.085 E353.57501
G1 X85.264 Y149.095 E353.61706
G1 X78.722 Y149.095 E353.88946
G1 X78.722 Y140.945 E354.22881
G1 X79.806 Y140.945 E354.27394
G1 X79.806 Y132.311 E354.63345
G1 X83.421 Y131.887 E354.78500
G1 X86.535 Y129.780 E354.94155
G1 X88.345 Y126.543 E355.09597
G1 X74.670 Y123.348 E355.68071
G1 X74.670 Y118.275 E355.89194
G1 X88.467 Y115.046 E356.48194
G1 X86.535 Y111.591 E356.64676
G1 X83.421 Y109.484 E356.80331
G1 X79.806 Y109.060 E356.95487
G1 X79.806 Y73.316 E358.44317
G1 X85.587 Y73.316 E358.68388
G1 X85.587 Y72.382 E358.72277
G1 X82.465 Y72.382 E358.85277
G1 X82.465 Y71.207 E358.90169
G1 X83.421 Y71.095 E358.94177
G1 X85.587 Y69.630 E359.05065
G1 X86.535 Y68.987 E359.09834
G1 X87.979 Y66.404 E359.22156
G1 X74.670 Y63.254 E359.79103
G0 F10500 X75.016 Y62.913
G0 X88.636 Y66.114
G0 X86.919 Y69.339
G0 X83.602 Y71.584
G0 X86.041 Y71.928
G0 X86.041 Y73.770
G0 X89.126 Y115.337
G0 X78.670 Y118.200
G0 X78.631 Y118.611
G1 F900 X78.180 Y118.654 E359.80989
G1 X77.746 Y118.786 E359.82878
G1 X77.346 Y119.000 E359.84767
G1 X76.995 Y119.288 E359.86658
G1 X76.707 Y119.639 E359.88548
G1 X76.494 Y120.039 E359.90435
G1 X76.363 Y120.473 E359.92323
G1 X76.317 Y120.924 E359.94210
G1 X76.363 Y121.375 E359.96098
G1 X76.494 Y121.809 E359.97985
G1 X76.707 Y122.209 E359.99872
G1 X76.995 Y122.560 E360.01763
G1 X77.346 Y122.848 E360.03653
G1 X77.746 Y123.062 E360.05542
G1 X78.180 Y123.192 E360.07429
G1 X78.631 Y123.238 E360.09316
G1 X79.083 Y123.192 E360.11208
G1 X79.517 Y123.062 E360.13094
G1 X79.918 Y122.847 E360.14989
G1 X80.267 Y122.559 E360.16873
G1 X80.554 Y122.209 E360.18758
G1 X80.768 Y121.809 E360.20647
G1 X80.900 Y121.375 E360.22535
G1 X80.943 Y120.924 E360.24422
G1 X80.900 Y120.473 E360.26308
G1 X80.768 Y120.039 E360.28197
G1 X80.554 Y119.639 E360.30086
G1 X80.267 Y119.289 E360.31971
G1 X79.918 Y119.001 E360.33855
G1 X79.517 Y118.786 E360.35749
G1 X79.083 Y118.654 E360.37638
G1 X78.631 Y118.611 E360.39529
G0 F10500 X78.670 Y118.200
G0 X77.060 Y118.573
G0 X75.638 Y119.832
;TYPE:FILL
G1 F900 X75.514 Y119.708 E360.40259
G0 F10500 X78.081 Y118.150
G0 X80.265 Y117.830
;TYPE:SKIN
G1 F900 X88.038 Y125.604 E360.86033
G0 F10500 X89.191 Y125.873
G1 F900 X80.981 Y117.663 E361.34377
G0 F10500 X81.697 Y117.495
G1 F900 X110.691 Y146.489 E363.05108
G0 F10500 X109.808 Y146.489
G1 F900 X89.508 Y126.190 E364.24642
G0 F10500 X89.191 Y126.757
G1 F900 X108.924 Y146.489 E365.40837
G0 F10500 X108.040 Y146.489
G1 F900 X88.874 Y127.324 E366.53693
G0 F10500 X88.557 Y127.890
G1 F900 X107.156 Y146.489 E367.63213
G0 F10500 X106.272 Y146.489
G1 F900 X88.240 Y128.457 E368.69394
G0 F10500 X87.923 Y129.025
G1 F900 X105.388 Y146.489 E369.72234
G0 F10500 X104.504 Y146.489
G1 F900 X87.606 Y129.591 E370.71738
G0 F10500 X87.289 Y130.158
G1 F900 X103.620 Y146.489 E371.67903
G0 F10500 X103.054 Y146.807
G1 F900 X86.839 Y130.592 E372.63385
G0 F10500 X86.312 Y130.949
G1 F900 X102.603 Y147.240 E373.59314
G0 F10500 X101.719 Y147.240
G1 F900 X85.785 Y131.306 E374.53141
G0 F10500 X85.257 Y131.662
G1 F900 X100.835 Y147.240 E375.44872
G0 F10500 X103.444 Y146.881
G0 X111.575 Y146.489
G1 F900 X82.414 Y117.328 E377.16587
G0 F10500 X83.130 Y117.160
G1 F900 X112.459 Y146.489 E378.89290
G0 F10500 X113.343 Y146.489
G1 F900 X83.846 Y116.992 E380.62983
G0 F10500 X84.562 Y116.825
G1 F900 X114.227 Y146.489 E382.37663
G0 F10500 X115.111 Y146.489
G1 F900 X85.279 Y116.657 E384.13328
G0 F10500 X85.995 Y116.490
G1 F900 X115.995 Y146.489 E385.89980
G0 F10500 X116.879 Y146.489
G1 F900 X86.711 Y116.322 E387.67621
G0 F10500 X87.428 Y116.155
G1 F900 X117.762 Y146.489 E389.46243
G0 F10500 X118.646 Y146.489
G1 F900 X88.144 Y115.987 E391.25854
G0 F10500 X88.860 Y115.819
G1 F900 X119.530 Y146.489 E393.06454
G0 F10500 X120.414 Y146.489
G1 F900 X89.577 Y115.652 E394.88038
G0 F10500 X88.903 Y114.094
G1 F900 X121.298 Y146.489 E396.78795
G0 F10500 X122.182 Y146.489
G1 F900 X87.779 Y112.087 E398.81374
G0 F10500 X85.697 Y110.004
G1 F900 X80.649 Y104.957 E399.11096
G0 F10500 X80.649 Y105.841
G1 F900 X83.443 Y108.634 E399.27546
G0 F10500 X82.442 Y108.517
G1 F900 X80.649 Y106.725 E399.38101
G0 F10500 X80.649 Y107.608
G1 F900 X81.441 Y108.400 E399.42765
G0 F10500 X80.649 Y104.073
G1 F900 X123.066 Y146.489 E401.92534
G0 F10500 X123.950 Y146.489
G1 F900 X80.649 Y103.189 E404.47509
G0 F10500 X80.649 Y102.305
G1 F900 X125.007 Y146.663 E407.08711
G0 F10500 X125.679 Y146.451
G1 F900 X80.649 Y101.421 E409.73870
G0 F10500 X80.649 Y100.537
G1 F900 X126.349 Y146.237 E412.42974
G0 F10500 X127.020 Y146.024
G1 F900 X80.649 Y99.653 E415.16029
G0 F10500 X80.649 Y98.770
G1 F900 X127.580 Y145.700 E417.92380
G0 F10500 X128.135 Y145.371
G1 F900 X80.649 Y97.886 E420.71998
G0 F10500 X80.649 Y97.002
G1 F900 X128.691 Y145.043 E423.54890
G0 F10500 X129.246 Y144.715
G1 F900 X80.649 Y96.118 E426.41053
G0 F10500 X80.649 Y95.234
G1 F900 X129.801 Y144.386 E429.30484
G0 F10500 X130.263 Y143.964
G1 F900 X80.649 Y94.350 E432.22636
G0 F10500 X80.649 Y93.466
G1 F900 X130.659 Y143.476 E435.17120
G0 F10500 X131.055 Y142.989
G1 F900 X80.649 Y92.582 E438.13938
G0 F10500 X80.649 Y91.699
G1 F900 X131.452 Y142.501 E441.13089
G0 F10500 X131.848 Y142.013
G1 F900 X80.649 Y90.815 E444.14571
G0 F10500 X80.649 Y89.931
G1 F900 X132.136 Y141.417 E447.17749
G0 F10500 X132.136 Y140.533
G1 F900 X80.649 Y89.047 E450.20927
G0 F10500 X80.649 Y88.163
G1 F900 X132.136 Y139.650 E453.24108
G0 F10500 X132.136 Y138.766
G1 F900 X80.649 Y87.279 E456.27289
G0 F10500 X80.649 Y86.395
G1 F900 X132.136 Y137.882 E459.30470
G0 F10500 X132.136 Y136.998
G1 F900 X80.649 Y85.511 E462.33651
G0 F10500 X80.649 Y84.627
G1 F900 X132.136 Y136.114 E465.36832
G0 F10500 X132.136 Y135.230
G1 F900 X80.649 Y83.744 E468.40010
G0 F10500 X80.649 Y82.860
G1 F900 X132.136 Y134.346 E471.43188
G0 F10500 X132.136 Y133.462
G1 F900 X80.649 Y81.976 E474.46366
G0 F10500 X80.649 Y81.092
G1 F900 X132.136 Y132.578 E477.49544
G0 F10500 X132.136 Y131.695
G1 F900 X80.649 Y80.208 E480.52725
G0 F10500 X80.649 Y79.324
G1 F900 X132.136 Y130.811 E483.55906
G0 F10500 X132.136 Y129.927
G1 F900 X80.649 Y78.440 E486.59087
G0 F10500 X80.649 Y77.556
G1 F900 X132.136 Y129.043 E489.62268
G0 F10500 X132.136 Y128.159
G1 F900 X80.649 Y76.673 E492.65446
G0 F10500 X80.649 Y75.789
G1 F900 X132.136 Y127.275 E495.68624
G0 F10500 X132.136 Y126.391
G1 F900 X80.649 Y74.905 E498.71802
G0 F10500 X80.788 Y74.159
G1 F900 X132.136 Y125.507 E501.74164
G0 F10500 X132.136 Y124.624
G1 F900 X81.672 Y74.159 E504.71324
G0 F10500 X82.556 Y74.159
G1 F900 X132.136 Y123.740 E507.63279
G0 F10500 X132.136 Y122.856
G1 F900 X83.440 Y74.159 E510.50028
G0 F10500 X84.323 Y74.159
G1 F900 X132.136 Y121.972 E513.31574
G0 F10500 X132.136 Y121.088
G1 F900 X85.207 Y74.159 E516.07916
G0 F10500 X86.091 Y74.159
G1 F900 X132.136 Y120.204 E518.79051
G0 F10500 X132.136 Y119.320
G1 F900 X86.429 Y73.614 E521.48194
G0 F10500 X86.429 Y72.730
G1 F900 X132.136 Y118.436 E524.17336
G0 F10500 X132.136 Y117.552
G1 F900 X86.429 Y71.846 E526.86479
G0 F10500 X86.121 Y71.537
G1 F900 X85.110 Y70.969 E526.90867
G1 X85.237 Y71.537 E526.93290
G0 F10500 X85.901 Y70.434
G1 F900 X132.136 Y116.669 E529.65545
G0 F10500 X132.136 Y115.785
G1 F900 X86.428 Y70.077 E532.34696
G0 F10500 X86.955 Y69.720
G1 F900 X132.136 Y114.901 E535.00744
G0 F10500 X132.136 Y114.017
G1 F900 X87.358 Y69.239 E537.64420
G0 F10500 X87.675 Y68.672
G1 F900 X132.136 Y113.133 E540.26228
G0 F10500 X132.136 Y112.249
G1 F900 X87.992 Y68.105 E542.86170
G0 F10500 X88.309 Y67.538
G1 F900 X132.136 Y111.365 E545.44245
G0 F10500 X132.136 Y110.481
G1 F900 X88.626 Y66.972 E548.00450
G0 F10500 X88.943 Y66.405
G1 F900 X132.136 Y109.598 E550.54792
G0 F10500 X132.136 Y108.714
G1 F900 X80.976 Y57.554 E553.56047
G0 F10500 X80.261 Y57.723
G1 F900 X88.104 Y65.566 E554.02231
G0 F10500 X86.947 Y65.292
G1 F900 X81.728 Y60.074 E554.32960
G0 F10500 X81.761 Y60.990
G1 F900 X85.789 Y65.018 E554.56679
G0 F10500 X84.630 Y64.744
G1 F900 X81.607 Y61.721 E554.74480
G0 F10500 X81.327 Y62.324
G1 F900 X83.473 Y64.470 E554.87117
G0 F10500 X82.315 Y64.196
G1 F900 X80.950 Y62.831 E554.95154
G0 F10500 X80.484 Y63.249
G1 F900 X81.157 Y63.922 E554.99117
G0 F10500 X88.123 Y55.862
G1 F900 X99.982 Y67.721 E555.68949
G0 F10500 X99.900 Y66.755
G1 F900 X88.838 Y55.693 E556.34087
G0 F10500 X89.552 Y55.524
G1 F900 X99.819 Y65.790 E556.94542
G0 F10500 X99.737 Y64.824
G1 F900 X89.776 Y54.863 E557.53197
G0 F10500 X88.654 Y52.857
G1 F900 X99.655 Y63.858 E558.17976
G0 F10500 X99.574 Y62.893
G1 F900 X87.532 Y50.852 E558.88883
G0 F10500 X87.526 Y50.845
G1 F900 X87.240 Y50.559 E558.90567
G0 F10500 X87.000 Y49.435
G1 F900 X99.492 Y61.927 E559.64126
G0 F10500 X99.410 Y60.961
G1 F900 X87.686 Y49.238 E560.33160
G0 F10500 X88.570 Y49.238
G1 F900 X99.328 Y59.996 E560.96508
G0 F10500 X99.246 Y59.030
G1 F900 X89.454 Y49.238 E561.54168
G0 F10500 X90.338 Y49.238
G1 F900 X99.164 Y58.064 E562.06140
G0 F10500 X99.083 Y57.099
G1 F900 X91.222 Y49.238 E562.52430
G0 F10500 X92.106 Y49.238
G1 F900 X99.001 Y56.133 E562.93031
G0 F10500 X98.914 Y55.162
G1 F900 X92.990 Y49.238 E563.27914
G0 F10500 X93.874 Y49.238
G1 F900 X98.654 Y54.019 E563.56064
G0 F10500 X98.394 Y52.875
G1 F900 X94.757 Y49.238 E563.77481
G0 F10500 X95.641 Y49.238
G1 F900 X98.135 Y51.731 E563.92164
G0 F10500 X97.875 Y50.588
G1 F900 X96.525 Y49.238 E564.00113
G0 F10500 X96.867 Y48.697
G1 F900 X97.615 Y49.444 E564.04515
G0 F10500 X89.453 Y55.126
G0 X87.409 Y56.031
G1 F900 X100.064 Y68.687 E564.79037
G0 F10500 X100.146 Y69.653
G1 F900 X86.694 Y56.200 E565.58252
G0 F10500 X85.979 Y56.369
G1 F900 X100.228 Y70.618 E566.42157
G0 F10500 X100.310 Y71.584
G1 F900 X85.264 Y56.538 E567.30755
G0 F10500 X84.550 Y56.708
G1 F900 X100.392 Y72.550 E568.24041
G0 F10500 X100.473 Y73.515
G1 F900 X83.835 Y56.877 E569.22013
G0 F10500 X83.120 Y57.046
G1 F900 X101.151 Y75.077 E570.28189
G0 F10500 X101.189 Y75.115
G1 F900 X132.136 Y106.062 E572.10420
G0 F10500 X132.136 Y106.946
G1 F900 X82.405 Y57.215 E575.03261
G0 F10500 X81.691 Y57.385
G1 F900 X132.136 Y107.830 E578.00306
G0 F10500 X132.136 Y105.178
G1 F900 X102.073 Y75.115 E579.77332
G0 F10500 X102.957 Y75.115
G1 F900 X132.136 Y104.294 E581.49152
G0 F10500 X132.136 Y103.410
G1 F900 X103.841 Y75.115 E583.15767
G0 F10500 X104.725 Y75.115
G1 F900 X132.136 Y102.526 E584.77177
G0 F10500 X132.136 Y101.643
G1 F900 X105.609 Y75.115 E586.33384
G0 F10500 X106.493 Y75.115
G1 F900 X132.136 Y100.759 E587.84385
G0 F10500 X132.136 Y99.875
G1 F900 X107.376 Y75.115 E589.30185
G0 F10500 X108.260 Y75.115
G1 F900 X132.136 Y98.991 E590.70778
G0 F10500 X132.136 Y98.107
G1 F900 X109.144 Y75.115 E592.06167
G0 F10500 X110.028 Y75.115
G1 F900 X132.136 Y97.223 E593.36349
G0 F10500 X132.136 Y96.339
G1 F900 X110.912 Y75.115 E594.61327
G0 F10500 X111.796 Y75.115
G1 F900 X132.136 Y95.455 E595.81099
G0 F10500 X132.136 Y94.571
G1 F900 X112.680 Y75.115 E596.95665
G0 F10500 X113.564 Y75.115
G1 F900 X132.136 Y93.688 E598.05030
G0 F10500 X132.136 Y92.804
G1 F900 X114.448 Y75.115 E599.09188
G0 F10500 X115.331 Y75.115
G1 F900 X132.136 Y91.920 E600.08144
G0 F10500 X132.136 Y91.036
G1 F900 X116.215 Y75.115 E601.01895
G0 F10500 X117.099 Y75.115
G1 F900 X132.136 Y90.152 E601.90440
G0 F10500 X132.136 Y89.268
G1 F900 X117.983 Y75.115 E602.73780
G0 F10500 X118.867 Y75.115
G1 F900 X132.136 Y88.384 E603.51915
G0 F10500 X132.136 Y87.500
G1 F900 X119.751 Y75.115 E604.24844
G0 F10500 X120.635 Y75.115
G1 F900 X132.136 Y86.617 E604.92570
G0 F10500 X132.136 Y85.733
G1 F900 X121.519 Y75.115 E605.55091
G0 F10500 X122.403 Y75.115
G1 F900 X132.136 Y84.849 E606.12407
G0 F10500 X132.136 Y83.965
G1 F900 X123.286 Y75.115 E606.64520
G0 F10500 X124.170 Y75.115
G1 F900 X132.136 Y83.081 E607.11428
G0 F10500 X132.136 Y82.197
G1 F900 X124.477 Y74.538 E607.56528
G0 F10500 X124.983 Y74.160
G1 F900 X132.136 Y81.313 E607.98648
G0 F10500 X132.136 Y80.429
G1 F900 X125.867 Y74.160 E608.35563
G0 F10500 X126.751 Y74.160
G1 F900 X132.136 Y79.545 E608.67273
G0 F10500 X132.136 Y78.662
G1 F900 X127.634 Y74.160 E608.93783
G0 F10500 X128.518 Y74.160
G1 F900 X132.136 Y77.778 E609.15087
G0 F10500 X132.136 Y76.894
G1 F900 X129.402 Y74.160 E609.31187
G0 F10500 X130.286 Y74.160
G1 F900 X132.136 Y76.010 E609.42080
G0 F10500 X132.136 Y75.126
G1 F900 X131.938 Y74.928 E609.43246
G0 F10500 X89.126 Y115.337
G0 X81.677 Y120.127
G1 F900 X86.885 Y125.334 E609.73911
G0 F10500 X85.731 Y125.065
G1 F900 X81.772 Y121.106 E609.97223
G0 F10500 X81.636 Y121.854
G1 F900 X84.578 Y124.795 E610.14544
G0 F10500 X83.425 Y124.526
G1 F900 X81.369 Y122.470 E610.26651
G0 F10500 X81.004 Y122.989
G1 F900 X82.271 Y124.257 E610.34115
G0 F10500 X81.118 Y123.987
G1 F900 X80.550 Y123.419 E610.37459
G0 F10500 X89.004 Y126.253
G0 X86.919 Y130.132
G0 X84.731 Y132.019
G1 F900 X99.951 Y147.240 E611.27085
G0 F10500 X99.067 Y147.240
G1 F900 X84.203 Y132.376 E612.14612
G0 F10500 X83.653 Y132.709
G1 F900 X98.183 Y147.240 E613.00174
G0 F10500 X97.300 Y147.240
G1 F900 X96.577 Y146.517 E613.04432
G0 F10500 X96.549 Y146.489
G1 F900 X82.862 Y132.802 E613.85028
G0 F10500 X82.071 Y132.895
G1 F900 X95.665 Y146.489 E614.65076
G0 F10500 X94.782 Y146.489
G1 F900 X81.279 Y132.987 E615.44585
G0 F10500 X80.650 Y133.242
G1 F900 X93.898 Y146.489 E616.22593
G0 F10500 X93.014 Y146.489
G1 F900 X80.650 Y134.126 E616.95396
G0 F10500 X80.650 Y135.010
G1 F900 X92.130 Y146.489 E617.62993
G0 F10500 X91.246 Y146.489
G1 F900 X80.650 Y135.893 E618.25387
G0 F10500 X80.650 Y136.777
G1 F900 X90.362 Y146.489 E618.82576
G0 F10500 X89.478 Y146.489
G1 F900 X80.650 Y137.661 E619.34560
G0 F10500 X80.650 Y138.545
G1 F900 X88.594 Y146.489 E619.81338
G0 F10500 X87.874 Y146.653
G1 F900 X80.650 Y139.429 E620.23876
G0 F10500 X80.650 Y140.313
G1 F900 X87.578 Y147.240 E620.64669
G0 F10500 X86.694 Y147.240
G1 F900 X80.650 Y141.197 E621.00256
G0 F10500 X80.357 Y141.788
G1 F900 X85.810 Y147.240 E621.32363
G0 F10500 X84.926 Y147.240
G1 F900 X79.565 Y141.880 E621.63928
G0 F10500 X79.565 Y142.764
G1 F900 X84.420 Y147.618 E621.92514
G0 F10500 X84.167 Y148.249
G1 F900 X79.565 Y143.648 E622.19610
G0 F10500 X79.565 Y144.531
G1 F900 X83.283 Y148.249 E622.41503
G0 F10500 X82.399 Y148.249
G1 F900 X79.565 Y145.415 E622.58191
G0 F10500 X79.565 Y146.299
G1 F900 X81.515 Y148.249 E622.69674
G0 F10500 X80.632 Y148.249
G1 F900 X79.565 Y147.183 E622.75954
G0 F10500 X79.565 Y148.067
G1 F900 X79.748 Y148.249 E622.77029
G1 F600 E621.27029
G1 Z0.525
G0 F10500 X84.008 Y50.596
;TYPE:WALL-INNER
G1 Z0.425
G1 F600 E622.77029
G1 F900 X80.979 Y49.672 E622.90215
G1 X80.301 Y48.115 E622.97286
G1 X81.216 Y48.115 E623.01096
G1 X81.216 Y49.690 E623.07654
G1 X82.612 Y49.855 E623.13507
G1 X82.974 Y49.897 E623.15024
G1 X84.008 Y50.596 E623.20221
G0 F10500 X83.064 Y49.692
G0 X83.198 Y49.293
;TYPE:WALL-OUTER
G1 F900 X84.969 Y50.491 E623.29124
G1 X84.969 Y51.543 E623.33504
G1 X80.521 Y50.186 E623.52867
G1 X79.348 Y47.490 E623.65109
G1 X84.963 Y47.490 E623.88489
G1 X84.963 Y48.239 E623.91608
G1 X81.841 Y48.239 E624.04607
G1 X81.841 Y49.134 E624.08334
G1 X83.198 Y49.293 E624.14023
;LAYER:1
M106 S191
G1 F600 E622.64023
G1 Z0.525
G0 F10500 X71.062 Y58.014 Z0.805
;TYPE:WALL-INNER
G1 Z0.805
G1 F600 E624.14023
G1 F1140 X71.062 Y62.397 E624.27077
G1 X57.524 Y65.600 E624.68511
G1 X59.302 Y68.782 E624.79367
G1 X59.967 Y69.231 E624.81757
G1 X62.591 Y71.007 E624.91193
G1 X63.266 Y71.085 E624.93217
G1 X63.266 Y71.433 E624.94254
G1 X60.144 Y71.433 E625.03552
G1 X60.144 Y73.243 E625.08943
G1 X65.926 Y73.243 E625.26164
G1 X65.926 Y108.160 E626.30158
G1 X62.591 Y108.550 E626.40159
G1 X59.302 Y110.777 E626.51989
G1 X57.035 Y114.831 E626.65823
G1 X71.062 Y118.112 E627.08727
G1 X71.062 Y122.491 E627.21769
G1 X57.158 Y125.739 E627.64295
G1 X59.302 Y129.573 E627.77378
G1 X62.591 Y131.800 E627.89208
G1 X65.926 Y132.190 E627.99209
G1 X65.926 Y140.873 E628.25070
G1 X67.010 Y140.873 E628.28298
G1 X67.010 Y148.146 E628.49960
G1 X61.343 Y148.146 E628.66838
G1 X61.343 Y147.137 E628.69843
G1 X57.888 Y147.137 E628.80133
G1 X57.888 Y146.386 E628.82370
G1 X49.998 Y146.386 E629.05869
G1 X49.998 Y147.137 E629.08106
G1 X46.465 Y147.137 E629.18628
G1 X46.465 Y148.284 E629.22044
G1 X46.439 Y148.284 E629.22122
G1 X46.439 Y147.137 E629.25538
G1 X42.709 Y147.137 E629.36647
G1 X42.709 Y146.386 E629.38884
G1 X22.188 Y146.386 E630.00002
G1 X22.188 Y146.907 E630.01554
G1 X21.387 Y146.653 E630.04057
G1 X20.829 Y146.474 E630.05802
G1 X18.951 Y145.879 E630.11669
G1 X15.871 Y144.055 E630.22331
G1 X13.627 Y141.295 E630.32925
G1 X13.627 Y74.281 E632.32515
G1 X15.561 Y73.243 E632.39053
G1 X22.096 Y73.243 E632.58516
G1 X22.096 Y74.200 E632.61366
G1 X44.611 Y74.200 E633.28424
G1 X44.611 Y73.243 E633.31274
G1 X45.267 Y73.243 E633.33228
G1 X46.844 Y54.625 E633.88877
G1 X48.448 Y47.559 E634.10457
G1 X49.706 Y47.559 E634.14204
G1 X49.706 Y48.322 E634.16477
G1 X59.216 Y48.322 E634.44801
G1 X59.216 Y47.559 E634.47073
G1 X59.877 Y47.559 E634.49042
G1 X59.614 Y48.790 E634.52791
G1 X60.144 Y48.790 E634.54369
G1 X60.144 Y49.414 E634.56228
G1 X59.368 Y49.939 E634.59018
G1 X59.197 Y50.742 E634.61463
G1 X58.878 Y50.742 E634.62413
G1 X56.711 Y54.618 E634.75639
G1 X71.062 Y58.014 E635.19562
G0 F10500 X69.829 Y58.659
G1 F1140 X69.486 Y58.242 E635.21170
G1 X69.069 Y57.900 E635.22776
G1 X68.593 Y57.645 E635.24384
G1 X68.076 Y57.488 E635.25994
G1 X67.539 Y57.435 E635.27601
G1 X67.001 Y57.488 E635.29211
G1 X66.484 Y57.645 E635.30820
G1 X66.008 Y57.900 E635.32428
G1 X65.591 Y58.243 E635.34037
G1 X65.249 Y58.659 E635.35641
G1 X64.995 Y59.134 E635.37245
G1 X64.838 Y59.652 E635.38857
G1 X64.785 Y60.189 E635.40464
G1 X64.838 Y60.726 E635.42071
G1 X64.995 Y61.243 E635.43680
G1 X65.249 Y61.718 E635.45285
G1 X65.591 Y62.135 E635.46891
G1 X66.008 Y62.478 E635.48499
G1 X66.485 Y62.734 E635.50111
G1 X67.001 Y62.889 E635.51716
G1 X67.539 Y62.943 E635.53326
G1 X68.076 Y62.889 E635.54934
G1 X68.592 Y62.734 E635.56539
G1 X69.069 Y62.478 E635.58151
G1 X69.486 Y62.136 E635.59757
G1 X69.829 Y61.718 E635.61368
G1 X70.082 Y61.242 E635.62973
G1 X70.239 Y60.727 E635.64577
G1 X70.293 Y60.189 E635.66187
G1 X70.239 Y59.651 E635.67797
G1 X70.082 Y59.135 E635.69404
G1 X69.829 Y58.659 E635.71009
G1 F600 E634.21009
G1 Z0.905
G0 F10500 X65.327 Y49.315
G1 Z0.805
G1 F600 E635.71009
G1 F1140 X61.640 Y50.441 E635.82491
G1 X61.641 Y50.212 E635.83173
G1 X63.128 Y49.206 E635.88520
G1 X64.766 Y49.013 E635.93433
G1 X64.766 Y47.418 E635.98183
G1 X66.153 Y47.418 E636.02314
G1 X65.327 Y49.315 E636.08476
G1 F600 E634.58476
G1 Z0.905
G0 F10500 X67.539 Y117.659
G1 Z0.805
G1 F600 E636.08476
G1 F1140 X67.000 Y117.713 E636.10090
G1 X66.485 Y117.870 E636.11693
G1 X66.009 Y118.123 E636.13299
G1 X65.591 Y118.467 E636.14911
G1 X65.249 Y118.884 E636.16517
G1 X64.995 Y119.359 E636.18121
G1 X64.838 Y119.876 E636.19731
G1 X64.785 Y120.413 E636.21338
G1 X64.838 Y120.951 E636.22948
G1 X64.995 Y121.468 E636.24557
G1 X65.249 Y121.942 E636.26159
G1 X65.591 Y122.361 E636.27770
G1 X66.009 Y122.703 E636.29378
G1 X66.484 Y122.957 E636.30982
G1 X67.001 Y123.114 E636.32592
G1 X67.539 Y123.167 E636.34202
G1 X68.076 Y123.114 E636.35809
G1 X68.593 Y122.957 E636.37418
G1 X69.068 Y122.703 E636.39022
G1 X69.486 Y122.361 E636.40631
G1 X69.829 Y121.942 E636.42244
G1 X70.082 Y121.467 E636.43847
G1 X70.239 Y120.952 E636.45450
G1 X70.293 Y120.413 E636.47063
G1 X70.239 Y119.875 E636.48674
G1 X70.082 Y119.360 E636.50277
G1 X69.829 Y118.884 E636.51883
G1 X69.486 Y118.466 E636.53493
G1 X69.068 Y118.123 E636.55104
G1 X68.592 Y117.870 E636.56709
G1 X68.077 Y117.713 E636.58313
G1 X67.539 Y117.659 E636.59923
G0 F10500 X67.539 Y118.162
;TYPE:WALL-OUTER
G1 F1080 X67.099 Y118.206 E636.61240
G1 X66.677 Y118.334 E636.62554
G1 X66.288 Y118.541 E636.63866
G1 X65.946 Y118.822 E636.65184
G1 X65.667 Y119.163 E636.66497
G1 X65.459 Y119.552 E636.67810
G1 X65.331 Y119.974 E636.69124
G1 X65.288 Y120.413 E636.70438
G1 X65.331 Y120.853 E636.71754
G1 X65.459 Y121.275 E636.73068
G1 X65.667 Y121.663 E636.74379
G1 X65.946 Y122.006 E636.75696
G1 X66.288 Y122.285 E636.77010
G1 X66.677 Y122.493 E636.78324
G1 X67.099 Y122.621 E636.79637
G1 X67.539 Y122.664 E636.80954
G1 X67.978 Y122.621 E636.82268
G1 X68.400 Y122.493 E636.83581
G1 X68.789 Y122.285 E636.84895
G1 X69.131 Y122.006 E636.86210
G1 X69.411 Y121.663 E636.87528
G1 X69.618 Y121.275 E636.88838
G1 X69.746 Y120.853 E636.90151
G1 X69.790 Y120.413 E636.91468
G1 X69.746 Y119.974 E636.92783
G1 X69.618 Y119.552 E636.94096
G1 X69.411 Y119.163 E636.95408
G1 X69.131 Y118.821 E636.96725
G1 X68.789 Y118.541 E636.98041
G1 X68.400 Y118.334 E636.99354
G1 X67.978 Y118.206 E637.00667
G1 X67.539 Y118.162 E637.01981
G0 F10500 X67.572 Y117.815
G0 X71.280 Y118.008
G0 X71.562 Y117.715
G1 F1080 X71.562 Y122.888 E637.17388
G1 X57.919 Y126.075 E637.59115
G1 X59.681 Y129.226 E637.69868
G1 X62.770 Y131.317 E637.80977
G1 X66.426 Y131.744 E637.91940
G1 X66.426 Y140.373 E638.17640
G1 X67.510 Y140.373 E638.20869
G1 X67.510 Y148.646 E638.45509
G1 X60.843 Y148.646 E638.65365
G1 X60.843 Y147.637 E638.68370
G1 X57.388 Y147.637 E638.78661
G1 X57.388 Y146.886 E638.80897
G1 X50.498 Y146.886 E639.01418
G1 X50.498 Y147.637 E639.03655
G1 X46.965 Y147.637 E639.14177
G1 X46.965 Y148.784 E639.17593
G1 X45.939 Y148.784 E639.20649
G1 X45.939 Y147.637 E639.24065
G1 X42.209 Y147.637 E639.35175
G1 X42.209 Y146.886 E639.37411
G1 X22.688 Y146.886 E639.95551
G1 X22.688 Y147.590 E639.97648
G1 X18.747 Y146.339 E640.09963
G1 X15.540 Y144.440 E640.21063
G1 X13.127 Y141.472 E640.32456
G1 X13.127 Y73.982 E642.33464
G1 X15.435 Y72.743 E642.41266
G1 X22.596 Y72.743 E642.62594
G1 X22.596 Y73.700 E642.65444
G1 X44.111 Y73.700 E643.29523
G1 X44.111 Y72.743 E643.32373
G1 X44.808 Y72.743 E643.34449
G1 X46.348 Y54.550 E643.88828
G1 X48.050 Y47.059 E644.11707
G1 X50.206 Y47.059 E644.18128
G1 X50.206 Y47.822 E644.20401
G1 X51.851 Y47.822 E644.25300
G1 X51.851 Y47.059 E644.27573
G1 X52.495 Y47.059 E644.29491
G1 X52.495 Y47.822 E644.31763
G1 X54.139 Y47.822 E644.36660
G1 X54.139 Y47.059 E644.38932
G1 X54.783 Y47.059 E644.40850
G1 X54.783 Y47.822 E644.43123
G1 X56.427 Y47.822 E644.48019
G1 X56.427 Y47.059 E644.50292
G1 X57.071 Y47.059 E644.52210
G1 X57.071 Y47.822 E644.54482
G1 X58.716 Y47.822 E644.59381
G1 X58.716 Y47.059 E644.61654
G1 X60.495 Y47.059 E644.66952
G1 X60.232 Y48.290 E644.70701
G1 X60.643 Y48.290 E644.71926
G1 X60.644 Y49.679 E644.76062
G1 X59.815 Y50.240 E644.79044
G1 X59.601 Y51.242 E644.82095
G1 X59.171 Y51.242 E644.83376
G1 X57.470 Y54.284 E644.93756
G1 X71.562 Y57.619 E645.36886
G1 X71.562 Y62.792 E645.52293
G1 X58.283 Y65.934 E645.92935
G1 X59.681 Y68.434 E646.01466
G1 X62.771 Y70.524 E646.12576
G1 X63.766 Y70.640 E646.15560
G1 X63.766 Y71.933 E646.19411
G1 X60.644 Y71.933 E646.28709
G1 X60.644 Y72.743 E646.31121
G1 X66.426 Y72.743 E646.48342
G1 X66.426 Y108.606 E647.55154
G1 X62.770 Y109.033 E647.66117
G1 X59.681 Y111.124 E647.77227
G1 X57.796 Y114.495 E647.88730
G1 X71.562 Y117.715 E648.30836
G0 F10500 X71.280 Y118.008
G0 X57.233 Y114.743
G0 X59.344 Y110.816
G0 X62.612 Y108.604
G0 X60.253 Y71.542
G0 X57.720 Y65.687
G0 X67.506 Y62.787
G0 X67.539 Y62.440
G1 F1080 X67.978 Y62.396 E648.32151
G1 X68.400 Y62.269 E648.33463
G1 X68.790 Y62.061 E648.34779
G1 X69.131 Y61.781 E648.36094
G1 X69.411 Y61.439 E648.37410
G1 X69.618 Y61.050 E648.38722
G1 X69.746 Y60.628 E648.40036
G1 X69.790 Y60.189 E648.41350
G1 X69.746 Y59.750 E648.42664
G1 X69.618 Y59.327 E648.43980
G1 X69.411 Y58.938 E648.45293
G1 X69.131 Y58.597 E648.46607
G1 X68.790 Y58.317 E648.47921
G1 X68.400 Y58.109 E648.49237
G1 X67.978 Y57.981 E648.50551
G1 X67.539 Y57.938 E648.51864
G1 X67.099 Y57.981 E648.53181
G1 X66.677 Y58.109 E648.54494
G1 X66.287 Y58.317 E648.55811
G1 X65.946 Y58.598 E648.57127
G1 X65.667 Y58.938 E648.58437
G1 X65.459 Y59.327 E648.59751
G1 X65.331 Y59.750 E648.61067
G1 X65.288 Y60.189 E648.62381
G1 X65.331 Y60.628 E648.63694
G1 X65.459 Y61.050 E648.65008
G1 X65.667 Y61.439 E648.66322
G1 X65.946 Y61.780 E648.67634
G1 X66.287 Y62.061 E648.68950
G1 X66.677 Y62.269 E648.70266
G1 X67.099 Y62.396 E648.71579
G1 X67.539 Y62.440 E648.72896
G1 F600 E647.22896
G1 Z0.905
G0 F10500 X65.694 Y49.726
G1 Z0.805
G1 F600 E648.72896
G1 F1080 X61.138 Y51.116 E648.87083
G1 X61.143 Y49.945 E648.90570
G1 X62.950 Y48.723 E648.97067
G1 X64.266 Y48.568 E649.01014
G1 X64.266 Y47.790 E649.03331
G1 X61.141 Y47.790 E649.12638
G1 X61.138 Y46.918 E649.15235
G1 X66.917 Y46.918 E649.32447
G1 X65.694 Y49.726 E649.41569
G0 F10500 X65.473 Y49.427
G0 X65.999 Y48.151
G0 X65.699 Y48.021
;TYPE:FILL
G1 F1260 X65.270 Y47.593 E649.43374
G1 F600 E647.93374
G1 Z0.905
G0 F10500 X70.430 Y59.824
G1 Z0.805
G1 F600 E649.43374
G1 F1260 X70.886 Y60.104 E649.45290
G1 X70.450 Y60.364 E649.46802
G0 F10500 X70.411 Y62.606
G0 X57.720 Y65.687
G0 X59.345 Y68.743
G0 X62.612 Y70.953
G0 X60.253 Y71.542
G0 X60.253 Y73.134
G0 X57.233 Y114.743
G0 X69.466 Y117.917
G1 F1260 X69.394 Y118.164 E649.47511
G1 X70.038 Y118.051 E649.48606
G1 X69.833 Y118.610 E649.50379
G0 F10500 X70.111 Y119.040
;TYPE:SKIN
G1 F1380 X70.886 Y118.264 E649.53645
G0 F10500 X70.886 Y118.971
G1 F1380 X70.602 Y119.608 E649.56030
G1 X70.662 Y120.255 E649.57911
G1 X70.425 Y120.846 E649.59807
G0 F10500 X70.886 Y121.092
G1 F1380 X70.015 Y121.963 E649.63476
G0 F10500 X70.165 Y122.521
G1 F1380 X70.886 Y121.799 E649.66515
G0 F10500 X67.539 Y123.115
G0 X66.664 Y123.193
G1 F1380 X66.320 Y123.183 E649.67310
G1 X65.552 Y123.598 E649.69910
G0 F10500 X65.737 Y122.706
G1 F1380 X64.629 Y123.814 E649.74577
G0 F10500 X63.707 Y124.029
G1 F1380 X65.369 Y122.367 E649.81578
G0 F10500 X65.063 Y121.966
G1 F1380 X62.784 Y124.245 E649.91177
G0 F10500 X61.862 Y124.459
G1 F1380 X64.822 Y121.500 E650.03642
G0 F10500 X64.662 Y120.952
G1 F1380 X60.939 Y124.675 E650.19324
G0 F10500 X60.017 Y124.891
G1 F1380 X64.622 Y120.285 E650.38722
G0 F10500 X57.355 Y125.827
G0 X59.344 Y129.534
G0 X60.184 Y130.380
G1 F1380 X43.603 Y146.961 E651.08561
G0 F10500 X44.310 Y146.961
G1 F1380 X60.606 Y130.666 E651.77198
G0 F10500 X61.027 Y130.951
G1 F1380 X45.017 Y146.961 E652.44632
G0 F10500 X45.725 Y146.961
G1 F1380 X61.448 Y131.237 E653.10860
G0 F10500 X61.870 Y131.523
G1 F1380 X46.432 Y146.961 E653.75885
G0 F10500 X47.139 Y146.961
G1 F1380 X62.292 Y131.808 E654.39709
G0 F10500 X62.807 Y132.000
G1 F1380 X47.846 Y146.961 E655.02725
G0 F10500 X48.553 Y146.961
G1 F1380 X63.440 Y132.074 E655.65429
G0 F10500 X64.073 Y132.149
G1 F1380 X50.011 Y146.210 E656.24656
G0 F10500 X49.822 Y146.399
G1 F1380 X49.260 Y146.961 E656.27023
G0 F10500 X50.718 Y146.210
G1 F1380 X64.706 Y132.222 E656.85941
G0 F10500 X65.339 Y132.296
G1 F1380 X51.425 Y146.210 E657.44547
G0 F10500 X52.132 Y146.210
G1 F1380 X65.750 Y132.593 E658.01904
G0 F10500 X65.750 Y133.300
G1 F1380 X52.839 Y146.210 E658.56283
G0 F10500 X53.547 Y146.210
G1 F1380 X65.750 Y134.007 E659.07682
G0 F10500 X65.750 Y134.714
G1 F1380 X54.254 Y146.210 E659.56103
G0 F10500 X54.961 Y146.210
G1 F1380 X65.750 Y135.421 E660.01547
G0 F10500 X65.750 Y136.128
G1 F1380 X55.668 Y146.210 E660.44012
G0 F10500 X56.375 Y146.210
G1 F1380 X65.750 Y136.835 E660.83500
G0 F10500 X65.750 Y137.542
G1 F1380 X57.082 Y146.210 E661.20009
G0 F10500 X57.789 Y146.210
G1 F1380 X65.750 Y138.249 E661.53541
G0 F10500 X65.750 Y138.957
G1 F1380 X58.062 Y146.644 E661.85921
G0 F10500 X58.452 Y146.961
G1 F1380 X65.750 Y139.664 E662.16658
G0 F10500 X65.750 Y140.371
G1 F1380 X59.160 Y146.961 E662.44415
G0 F10500 X59.867 Y146.961
G1 F1380 X65.781 Y141.047 E662.69325
G0 F10500 X66.488 Y141.047
G1 F1380 X60.574 Y146.961 E662.94235
G0 F10500 X61.281 Y146.961
G1 F1380 X66.835 Y141.407 E663.17628
G0 F10500 X66.835 Y142.115
G1 F1380 X61.518 Y147.431 E663.40021
G0 F10500 X61.686 Y147.970
G1 F1380 X66.835 Y142.822 E663.61707
G0 F10500 X66.835 Y143.529
G1 F1380 X62.393 Y147.970 E663.80414
G0 F10500 X63.100 Y147.970
G1 F1380 X66.835 Y144.236 E663.96144
G0 F10500 X66.835 Y144.943
G1 F1380 X63.807 Y147.970 E664.08896
G0 F10500 X64.515 Y147.970
G1 F1380 X66.835 Y145.650 E664.18668
G0 F10500 X66.835 Y146.357
G1 F1380 X65.222 Y147.970 E664.25462
G0 F10500 X65.929 Y147.970
G1 F1380 X66.835 Y147.064 E664.29278
G0 F10500 X66.835 Y147.771
G1 F1380 X66.636 Y147.970 E664.30116
G0 F10500 X59.763 Y130.094
G1 F1380 X42.896 Y146.961 E665.01160
G0 F10500 X42.883 Y146.267
G1 F1380 X59.341 Y129.809 E665.70481
G0 F10500 X59.018 Y129.425
G1 F1380 X42.233 Y146.210 E666.41180
G0 F10500 X41.526 Y146.210
G1 F1380 X58.765 Y128.971 E667.13791
G0 F10500 X58.511 Y128.518
G1 F1380 X40.819 Y146.210 E667.88309
G0 F10500 X40.112 Y146.210
G1 F1380 X58.258 Y128.064 E668.64740
G0 F10500 X58.004 Y127.610
G1 F1380 X39.404 Y146.210 E669.43084
G0 F10500 X38.697 Y146.210
G1 F1380 X57.750 Y127.157 E670.23335
G0 F10500 X57.497 Y126.703
G1 F1380 X37.990 Y146.210 E671.05499
G0 F10500 X37.283 Y146.210
G1 F1380 X57.243 Y126.250 E671.89570
G0 F10500 X56.990 Y125.796
G1 F1380 X36.576 Y146.210 E672.75554
G0 F10500 X35.869 Y146.210
G1 F1380 X65.168 Y116.911 E673.98962
G0 F10500 X65.741 Y117.045
G1 F1380 X57.250 Y125.536 E674.34726
G0 F10500 X58.172 Y125.321
G1 F1380 X66.314 Y117.179 E674.69020
G0 F10500 X66.526 Y117.674
G1 F1380 X66.888 Y117.313 E674.70543
G0 F10500 X64.595 Y116.777
G1 F1380 X35.162 Y146.210 E675.94515
G0 F10500 X34.455 Y146.210
G1 F1380 X64.022 Y116.643 E677.19051
G0 F10500 X63.449 Y116.509
G1 F1380 X33.748 Y146.210 E678.44152
G0 F10500 X33.040 Y146.210
G1 F1380 X62.875 Y116.375 E679.69817
G0 F10500 X62.303 Y116.241
G1 F1380 X32.333 Y146.210 E680.96049
G0 F10500 X31.626 Y146.210
G1 F1380 X61.729 Y116.107 E682.22843
G0 F10500 X61.156 Y115.973
G1 F1380 X30.919 Y146.210 E683.50201
G0 F10500 X30.212 Y146.210
G1 F1380 X60.583 Y115.839 E684.78124
G0 F10500 X60.010 Y115.705
G1 F1380 X29.505 Y146.210 E686.06611
G0 F10500 X28.798 Y146.210
G1 F1380 X59.437 Y115.571 E687.35663
G0 F10500 X58.864 Y115.437
G1 F1380 X28.091 Y146.210 E688.65279
G0 F10500 X27.384 Y146.210
G1 F1380 X58.291 Y115.303 E689.95460
G0 F10500 X57.718 Y115.169
G1 F1380 X26.677 Y146.210 E691.26204
G0 F10500 X25.969 Y146.210
G1 F1380 X57.144 Y115.035 E692.57514
G0 F10500 X57.076 Y114.396
G1 F1380 X25.262 Y146.210 E693.91514
G0 F10500 X24.555 Y146.210
G1 F1380 X57.974 Y112.792 E695.32273
G0 F10500 X58.871 Y111.187
G1 F1380 X23.848 Y146.210 E696.79790
G0 F10500 X23.141 Y146.210
G1 F1380 X65.751 Y103.601 E698.59262
G0 F10500 X65.751 Y104.308
G1 F1380 X59.897 Y110.161 E698.83917
G0 F10500 X62.089 Y108.676
G1 F1380 X65.751 Y105.015 E698.99339
G0 F10500 X65.751 Y105.722
G1 F1380 X63.167 Y108.305 E699.10221
G0 F10500 X63.967 Y108.212
G1 F1380 X65.751 Y106.429 E699.17733
G0 F10500 X65.751 Y107.136
G1 F1380 X64.768 Y108.119 E699.21873
G0 F10500 X65.568 Y108.026
G1 F1380 X65.751 Y107.843 E699.22644
G0 F10500 X65.751 Y102.893
G1 F1380 X22.434 Y146.210 E701.05096
G0 F10500 X21.449 Y146.488
G1 F1380 X65.751 Y102.186 E702.91696
G0 F10500 X65.751 Y101.479
G1 F1380 X20.912 Y146.318 E704.80558
G0 F10500 X20.375 Y146.147
G1 F1380 X65.751 Y100.772 E706.71680
G0 F10500 X65.751 Y100.065
G1 F1380 X19.839 Y145.977 E708.65062
G0 F10500 X19.302 Y145.806
G1 F1380 X65.751 Y99.358 E710.60703
G0 F10500 X65.751 Y98.651
G1 F1380 X18.810 Y145.591 E712.58417
G0 F10500 X18.365 Y145.329
G1 F1380 X65.751 Y97.944 E714.58005
G0 F10500 X65.751 Y97.237
G1 F1380 X17.921 Y145.066 E716.59463
G0 F10500 X17.477 Y144.803
G1 F1380 X65.751 Y96.529 E718.62793
G0 F10500 X65.751 Y95.822
G1 F1380 X17.033 Y144.540 E720.67994
G0 F10500 X16.589 Y144.277
G1 F1380 X65.751 Y95.115 E722.75064
G0 F10500 X65.751 Y94.408
G1 F1380 X16.145 Y144.014 E724.84005
G0 F10500 X15.784 Y143.668
G1 F1380 X65.751 Y93.701 E726.94466
G0 F10500 X65.751 Y92.994
G1 F1380 X15.466 Y143.278 E729.06265
G0 F10500 X15.149 Y142.888
G1 F1380 X65.751 Y92.287 E731.19399
G0 F10500 X65.751 Y91.580
G1 F1380 X14.832 Y142.498 E733.33868
G0 F10500 X14.515 Y142.108
G1 F1380 X65.751 Y90.873 E735.49672
G0 F10500 X65.751 Y90.166
G1 F1380 X14.197 Y141.719 E737.66816
G0 F10500 X13.881 Y141.328
G1 F1380 X65.751 Y89.458 E739.85293
G0 F10500 X65.751 Y88.751
G1 F1380 X13.802 Y140.700 E742.04102
G0 F10500 X13.802 Y139.993
G1 F1380 X65.751 Y88.044 E744.22912
G0 F10500 X65.751 Y87.337
G1 F1380 X13.802 Y139.286 E746.41721
G0 F10500 X13.802 Y138.579
G1 F1380 X65.751 Y86.630 E748.60531
G0 F10500 X65.751 Y85.923
G1 F1380 X13.802 Y137.872 E750.79340
G0 F10500 X13.802 Y137.165
G1 F1380 X65.751 Y85.216 E752.98150
G0 F10500 X65.751 Y84.509
G1 F1380 X13.802 Y136.458 E755.16959
G0 F10500 X13.802 Y135.751
G1 F1380 X65.751 Y83.802 E757.35769
G0 F10500 X65.751 Y83.094
G1 F1380 X13.802 Y135.043 E759.54578
G0 F10500 X13.802 Y134.336
G1 F1380 X65.751 Y82.387 E761.73388
G0 F10500 X65.751 Y81.680
G1 F1380 X13.802 Y133.629 E763.92197
G0 F10500 X13.802 Y132.922
G1 F1380 X65.751 Y80.973 E766.11007
G0 F10500 X65.751 Y80.266
G1 F1380 X13.802 Y132.215 E768.29816
G0 F10500 X13.802 Y131.508
G1 F1380 X65.751 Y79.559 E770.48626
G0 F10500 X65.751 Y78.852
G1 F1380 X13.802 Y130.801 E772.67435
G0 F10500 X13.802 Y130.094
G1 F1380 X65.751 Y78.145 E774.86245
G0 F10500 X65.751 Y77.438
G1 F1380 X13.802 Y129.387 E777.05054
G0 F10500 X13.802 Y128.679
G1 F1380 X65.751 Y76.730 E779.23864
G0 F10500 X65.751 Y76.023
G1 F1380 X13.802 Y127.972 E781.42673
G0 F10500 X13.802 Y127.265
G1 F1380 X65.751 Y75.316 E783.61483
G0 F10500 X65.751 Y74.609
G1 F1380 X13.802 Y126.558 E785.80292
G0 F10500 X13.802 Y125.851
G1 F1380 X65.751 Y73.902 E787.99102
G0 F10500 X65.529 Y73.416
G1 F1380 X13.802 Y125.144 E790.16978
G0 F10500 X13.802 Y124.437
G1 F1380 X64.822 Y73.416 E792.31877
G0 F10500 X64.115 Y73.416
G1 F1380 X13.802 Y123.730 E794.43798
G0 F10500 X13.802 Y123.023
G1 F1380 X63.408 Y73.416 E796.52741
G0 F10500 X62.701 Y73.416
G1 F1380 X13.802 Y122.316 E798.58706
G0 F10500 X13.802 Y121.608
G1 F1380 X61.994 Y73.416 E800.61691
G0 F10500 X61.287 Y73.416
G1 F1380 X13.802 Y120.901 E802.61698
G0 F10500 X13.802 Y120.194
G1 F1380 X60.579 Y73.416 E804.58725
G0 F10500 X60.253 Y73.134
G0 X60.253 Y71.542
G0 X60.618 Y71.257
G1 F1380 X61.438 Y70.437 E804.62179
G0 F10500 X61.860 Y70.721
G1 F1380 X61.678 Y71.257 E804.64431
G1 X62.281 Y71.007 E804.66375
G0 F10500 X61.016 Y70.151
G1 F1380 X13.802 Y117.366 E806.65243
G0 F10500 X13.802 Y118.073
G1 F1380 X59.969 Y71.906 E808.59699
G0 F10500 X59.969 Y72.613
G1 F1380 X13.802 Y118.780 E810.54154
G0 F10500 X13.802 Y119.487
G1 F1380 X59.969 Y73.320 E812.48610
G0 F10500 X59.751 Y69.295
G1 F1380 X13.802 Y115.244 E814.42148
G0 F10500 X13.802 Y114.537
G1 F1380 X59.329 Y69.010 E816.33908
G0 F10500 X59.011 Y68.621
G1 F1380 X13.802 Y113.830 E818.24328
G0 F10500 X13.802 Y113.123
G1 F1380 X58.758 Y68.167 E820.13683
G0 F10500 X58.504 Y67.713
G1 F1380 X13.802 Y112.416 E822.01970
G0 F10500 X13.802 Y111.709
G1 F1380 X58.251 Y67.259 E823.89192
G0 F10500 X57.997 Y66.806
G1 F1380 X13.802 Y111.002 E825.75344
G0 F10500 X13.802 Y110.295
G1 F1380 X57.744 Y66.352 E827.60430
G0 F10500 X57.490 Y65.899
G1 F1380 X13.802 Y109.588 E829.44446
G0 F10500 X13.802 Y108.881
G1 F1380 X65.746 Y56.936 E831.63236
G0 F10500 X65.175 Y56.800
G1 F1380 X13.802 Y108.173 E833.79620
G0 F10500 X13.802 Y107.466
G1 F1380 X64.603 Y56.665 E835.93594
G0 F10500 X64.031 Y56.530
G1 F1380 X13.802 Y106.759 E838.05159
G0 F10500 X13.802 Y106.052
G1 F1380 X63.460 Y56.394 E840.14319
G0 F10500 X62.887 Y56.259
G1 F1380 X44.786 Y74.361 E840.90562
G0 F10500 X44.773 Y74.374
G1 F1380 X13.802 Y105.345 E842.21012
G0 F10500 X13.802 Y104.638
G1 F1380 X44.066 Y74.374 E843.48484
G0 F10500 X43.359 Y74.374
G1 F1380 X13.802 Y103.931 E844.72979
G0 F10500 X13.802 Y103.224
G1 F1380 X42.651 Y74.374 E845.94493
G0 F10500 X41.944 Y74.374
G1 F1380 X13.802 Y102.517 E847.13029
G0 F10500 X13.802 Y101.809
G1 F1380 X41.237 Y74.374 E848.28586
G0 F10500 X40.530 Y74.374
G1 F1380 X13.802 Y101.102 E849.41164
G0 F10500 X13.802 Y100.395
G1 F1380 X39.823 Y74.374 E850.50765
G0 F10500 X39.116 Y74.374
G1 F1380 X13.802 Y99.688 E851.57388
G0 F10500 X13.802 Y98.981
G1 F1380 X38.409 Y74.374 E852.61032
G0 F10500 X37.702 Y74.374
G1 F1380 X13.802 Y98.274 E853.61699
G0 F10500 X13.802 Y97.567
G1 F1380 X36.995 Y74.374 E854.59388
G0 F10500 X36.288 Y74.374
G1 F1380 X13.802 Y96.860 E855.54100
G0 F10500 X13.802 Y96.153
G1 F1380 X35.580 Y74.374 E856.45831
G0 F10500 X34.873 Y74.374
G1 F1380 X13.802 Y95.445 E857.34582
G0 F10500 X13.802 Y94.738
G1 F1380 X34.166 Y74.374 E858.20355
G0 F10500 X33.459 Y74.374
G1 F1380 X13.802 Y94.031 E859.03151
G0 F10500 X13.802 Y93.324
G1 F1380 X32.752 Y74.374 E859.82968
G0 F10500 X32.045 Y74.374
G1 F1380 X13.802 Y92.617 E860.59808
G0 F10500 X13.802 Y91.910
G1 F1380 X31.338 Y74.374 E861.33670
G0 F10500 X30.631 Y74.374
G1 F1380 X13.802 Y91.203 E862.04553
G0 F10500 X13.802 Y90.496
G1 F1380 X29.924 Y74.374 E862.72459
G0 F10500 X29.216 Y74.374
G1 F1380 X13.802 Y89.789 E863.37385
G0 F10500 X13.802 Y89.082
G1 F1380 X28.509 Y74.374 E863.99333
G0 F10500 X27.802 Y74.374
G1 F1380 X13.802 Y88.374 E864.58302
G0 F10500 X13.802 Y87.667
G1 F1380 X27.095 Y74.374 E865.14292
G0 F10500 X26.388 Y74.374
G1 F1380 X13.802 Y86.960 E865.67304
G0 F10500 X13.802 Y86.253
G1 F1380 X25.681 Y74.374 E866.17338
G0 F10500 X24.974 Y74.374
G1 F1380 X13.802 Y85.546 E866.64395
G0 F10500 X13.802 Y84.839
G1 F1380 X24.267 Y74.374 E867.08474
G0 F10500 X23.560 Y74.374
G1 F1380 X13.802 Y84.132 E867.49574
G0 F10500 X13.802 Y83.425
G1 F1380 X22.852 Y74.374 E867.87695
G0 F10500 X22.145 Y74.374
G1 F1380 X13.802 Y82.718 E868.22838
G0 F10500 X13.802 Y82.010
G1 F1380 X21.921 Y73.891 E868.57035
G0 F10500 X21.689 Y73.416
G1 F1380 X13.802 Y81.303 E868.90255
G0 F10500 X13.802 Y80.596
G1 F1380 X20.981 Y73.416 E869.20496
G0 F10500 X20.274 Y73.416
G1 F1380 X13.802 Y79.889 E869.47758
G0 F10500 X13.802 Y79.182
G1 F1380 X19.567 Y73.416 E869.72042
G0 F10500 X18.860 Y73.416
G1 F1380 X13.802 Y78.475 E869.93348
G0 F10500 X13.802 Y77.768
G1 F1380 X18.153 Y73.416 E870.11677
G0 F10500 X17.446 Y73.416
G1 F1380 X13.802 Y77.061 E870.27028
G0 F10500 X13.802 Y76.354
G1 F1380 X16.739 Y73.416 E870.39400
G0 F10500 X16.032 Y73.416
G1 F1380 X13.802 Y75.646 E870.48793
G0 F10500 X13.802 Y74.939
G1 F1380 X15.001 Y73.740 E870.53843
G0 F10500 X22.205 Y74.091
G0 X44.502 Y74.091
G0 X44.786 Y73.654
G1 F1380 X45.023 Y73.416 E870.54844
G0 F10500 X45.465 Y72.974
G1 F1380 X62.315 Y56.124 E871.25816
G0 F10500 X61.744 Y55.988
G1 F1380 X45.531 Y72.201 E871.94105
G0 F10500 X45.596 Y71.429
G1 F1380 X61.172 Y55.853 E872.59712
G0 F10500 X60.601 Y55.717
G1 F1380 X45.662 Y70.656 E873.22635
G0 F10500 X45.727 Y69.884
G1 F1380 X60.029 Y55.582 E873.82875
G0 F10500 X64.746 Y59.350
G1 F1380 X59.035 Y65.061 E874.06930
G0 F10500 X59.961 Y64.842
G1 F1380 X64.609 Y60.194 E874.26507
G0 F10500 X64.684 Y60.826
G1 F1380 X60.888 Y64.623 E874.42498
G0 F10500 X61.813 Y64.404
G1 F1380 X64.857 Y61.360 E874.55319
G0 F10500 X65.105 Y61.820
G1 F1380 X62.740 Y64.185 E874.65281
G0 F10500 X63.666 Y63.966
G1 F1380 X65.424 Y62.208 E874.72685
G0 F10500 X65.803 Y62.536
G1 F1380 X64.592 Y63.747 E874.77786
G0 F10500 X65.518 Y63.528
G1 F1380 X66.243 Y62.803 E874.80840
G0 F10500 X66.444 Y63.309
G1 F1380 X66.756 Y62.997 E874.82154
G0 F10500 X69.320 Y62.554
G1 F1380 X70.886 Y60.989 E874.88748
G0 F10500 X70.410 Y60.757
G1 F1380 X70.667 Y60.146 E874.90750
G1 X70.616 Y59.490 E874.92588
G1 X70.886 Y58.868 E874.94607
G0 F10500 X70.886 Y58.160
G1 F1380 X70.152 Y58.894 E874.97699
G0 F10500 X69.886 Y58.453
G1 F1380 X70.035 Y57.950 E874.99530
G1 X69.557 Y58.075 E875.01002
G0 F10500 X66.890 Y57.207
G1 F1380 X66.699 Y57.397 E875.01804
G0 F10500 X66.318 Y57.071
G1 F1380 X58.109 Y65.280 E875.36380
G0 F10500 X59.457 Y55.447
G1 F1380 X45.792 Y69.111 E875.93935
G0 F10500 X45.857 Y68.339
G1 F1380 X58.885 Y55.312 E876.48807
G0 F10500 X58.313 Y55.176
G1 F1380 X45.923 Y67.566 E877.00994
G0 F10500 X45.988 Y66.794
G1 F1380 X57.741 Y55.041 E877.50498
G0 F10500 X57.170 Y54.906
G1 F1380 X46.054 Y66.021 E877.97316
G0 F10500 X46.119 Y65.249
G1 F1380 X56.598 Y54.771 E878.41452
G0 F10500 X57.100 Y53.561
G1 F1380 X46.185 Y64.476 E878.87426
G0 F10500 X46.251 Y63.703
G1 F1380 X57.996 Y51.958 E879.36896
G0 F10500 X59.154 Y50.093
G1 F1380 X46.316 Y62.931 E879.90970
G0 F10500 X46.381 Y62.158
G1 F1380 X59.576 Y48.964 E880.46545
G0 F10500 X59.968 Y49.279
G1 F1380 X59.841 Y49.406 E880.47080
G0 F10500 X59.336 Y48.496
G1 F1380 X46.447 Y61.386 E881.01370
G0 F10500 X46.512 Y60.613
G1 F1380 X58.629 Y48.496 E881.52407
G0 F10500 X57.922 Y48.496
G1 F1380 X46.577 Y59.841 E882.00193
G0 F10500 X46.643 Y59.068
G1 F1380 X57.215 Y48.496 E882.44722
G0 F10500 X56.508 Y48.496
G1 F1380 X46.708 Y58.296 E882.86000
G0 F10500 X46.774 Y57.523
G1 F1380 X55.801 Y48.496 E883.24021
G0 F10500 X55.094 Y48.496
G1 F1380 X46.839 Y56.751 E883.58791
G0 F10500 X46.905 Y55.978
G1 F1380 X54.387 Y48.496 E883.90306
G0 F10500 X53.680 Y48.496
G1 F1380 X46.970 Y55.206 E884.18568
G0 F10500 X47.075 Y54.394
G1 F1380 X52.972 Y48.496 E884.43409
G0 F10500 X52.265 Y48.496
G1 F1380 X47.283 Y53.479 E884.64395
G0 F10500 X47.490 Y52.564
G1 F1380 X51.558 Y48.496 E884.81529
G0 F10500 X50.851 Y48.496
G1 F1380 X47.698 Y51.649 E884.94810
G0 F10500 X47.905 Y50.735
G1 F1380 X50.144 Y48.496 E885.04240
G0 F10500 X49.530 Y48.404
G1 F1380 X48.113 Y49.820 E885.10207
G0 F10500 X48.320 Y48.906
G1 F1380 X49.493 Y47.733 E885.15147
G0 F10500 X48.786 Y47.733
G1 F1380 X48.528 Y47.991 E885.16234
G1 F600 E883.66234
G1 Z0.905
G0 F10500 X61.707 Y47.540
G1 Z0.805
G1 F600 E885.16234
G1 F1380 X62.246 Y47.354 E885.17800
G1 X62.954 Y47.354 E885.19365
G1 X63.661 Y47.354 E885.20927
G1 X64.201 Y47.168 E885.22628
G0 F10500 X64.940 Y47.842
G1 F1380 X65.191 Y47.592 E885.23683
G0 F10500 X65.875 Y47.615
G1 F1380 X64.940 Y48.549 E885.27619
G0 F10500 X65.330 Y48.867
G1 F1380 X64.950 Y49.247 E885.29220
G1 F600 E883.79220
G1 Z0.905
G0 F10500 X70.886 Y61.696
G1 Z0.805
G1 F600 E885.29220
G1 F1380 X70.149 Y62.433 E885.32324
G0 F10500 X57.720 Y65.687
G0 X59.345 Y68.743
G0 X60.594 Y69.866
G1 F1380 X13.802 Y116.659 E887.29414
G0 F10500 X13.802 Y115.952
G1 F1380 X60.173 Y69.580 E889.24731
G0 F10500 X60.253 Y73.134
G0 X57.233 Y114.743
G0 X64.799 Y119.402
G1 F1380 X59.095 Y125.106 E889.48757
G1 F600 E887.98757
G1 Z0.905
G0 F10500 X75.108 Y123.001
;TYPE:WALL-INNER
G1 Z0.805
G1 F600 E889.48757
G1 F1140 X75.108 Y118.622 E889.61799
G1 X89.133 Y115.341 E890.04698
G1 X86.867 Y111.287 E890.18530
G1 X83.578 Y109.061 E890.30359
G1 X80.244 Y108.671 E890.40356
G1 X80.244 Y73.754 E891.44351
G1 X86.025 Y73.754 E891.61568
G1 X86.025 Y71.944 E891.66959
G1 X82.903 Y71.944 E891.76258
G1 X82.903 Y71.597 E891.77291
G1 X83.578 Y71.517 E891.79315
G1 X86.867 Y69.291 E891.91144
G1 X88.644 Y66.111 E892.01993
G1 X75.108 Y62.908 E892.43422
G1 X75.108 Y58.525 E892.56476
G1 X89.458 Y55.129 E893.00395
G1 X87.291 Y51.252 E893.13624
G1 X86.972 Y51.252 E893.14574
G1 X86.801 Y50.449 E893.17019
G1 X86.029 Y49.927 E893.19794
G1 X86.027 Y49.301 E893.21659
G1 X86.557 Y49.301 E893.23237
G1 X86.293 Y48.070 E893.26987
G1 X86.953 Y48.070 E893.28953
G1 X86.953 Y48.833 E893.31225
G1 X96.463 Y48.833 E893.59549
G1 X96.463 Y48.070 E893.61822
G1 X97.721 Y48.070 E893.65569
G1 X99.325 Y55.136 E893.87149
G1 X100.902 Y73.754 E894.42798
G1 X101.558 Y73.754 E894.44752
G1 X101.558 Y74.710 E894.47599
G1 X124.073 Y74.710 E895.14656
G1 X124.073 Y73.754 E895.17504
G1 X130.608 Y73.754 E895.36967
G1 X132.542 Y74.792 E895.43505
G1 X132.542 Y141.805 E897.43092
G1 X130.298 Y144.565 E897.53686
G1 X127.218 Y146.389 E897.64347
G1 X123.981 Y147.416 E897.74462
G1 X123.981 Y146.897 E897.76008
G1 X103.460 Y146.897 E898.37126
G1 X103.460 Y147.647 E898.39360
G1 X99.730 Y147.647 E898.50469
G1 X99.730 Y148.794 E898.53885
G1 X99.704 Y148.794 E898.53963
G1 X99.704 Y147.647 E898.57379
G1 X96.171 Y147.647 E898.67901
G1 X96.171 Y146.897 E898.70135
G1 X88.281 Y146.897 E898.93634
G1 X88.281 Y147.647 E898.95868
G1 X84.826 Y147.647 E899.06158
G1 X84.826 Y148.657 E899.09166
G1 X79.160 Y148.657 E899.26041
G1 X79.160 Y141.383 E899.47706
G1 X80.244 Y141.383 E899.50934
G1 X80.244 Y132.700 E899.76795
G1 X83.578 Y132.310 E899.86793
G1 X86.867 Y130.085 E899.98619
G1 X89.011 Y126.249 E900.11708
G1 X75.108 Y123.001 E900.54231
G0 F10500 X76.341 Y122.453
G1 F1140 X76.684 Y122.871 E900.55841
G1 X77.101 Y123.213 E900.57447
G1 X77.578 Y123.469 E900.59060
G1 X78.094 Y123.624 E900.60664
G1 X78.631 Y123.678 E900.62272
G1 X79.169 Y123.624 E900.63882
G1 X79.685 Y123.469 E900.65487
G1 X80.162 Y123.213 E900.67099
G1 X80.579 Y122.870 E900.68707
G1 X80.920 Y122.453 E900.70312
G1 X81.174 Y121.978 E900.71916
G1 X81.331 Y121.461 E900.73525
G1 X81.384 Y120.924 E900.75132
G1 X81.331 Y120.387 E900.76739
G1 X81.174 Y119.870 E900.78349
G1 X80.920 Y119.395 E900.79953
G1 X80.579 Y118.978 E900.81557
G1 X80.162 Y118.635 E900.83165
G1 X79.686 Y118.380 E900.84774
G1 X79.169 Y118.223 E900.86383
G1 X78.631 Y118.170 E900.87993
G1 X78.094 Y118.223 E900.89600
G1 X77.577 Y118.380 E900.91209
G1 X77.101 Y118.635 E900.92818
G1 X76.684 Y118.977 E900.94424
G1 X76.341 Y119.395 E900.96034
G1 X76.088 Y119.871 E900.97640
G1 X75.931 Y120.386 E900.99243
G1 X75.877 Y120.924 E901.00854
G1 X75.931 Y121.462 E901.02464
G1 X76.088 Y121.977 E901.04068
G1 X76.341 Y122.453 E901.05673
G0 F10500 X75.981 Y120.396
G0 X76.503 Y118.237
G0 X88.936 Y115.253
G0 X86.825 Y111.325
G0 X83.557 Y109.116
G0 X85.916 Y72.053
G0 X88.448 Y66.198
G0 X78.631 Y63.453
G1 F1140 X79.169 Y63.400 E901.07283
G1 X79.686 Y63.243 E901.08893
G1 X80.162 Y62.989 E901.10499
G1 X80.579 Y62.646 E901.12108
G1 X80.920 Y62.228 E901.13714
G1 X81.174 Y61.754 E901.15316
G1 X81.331 Y61.236 E901.16928
G1 X81.384 Y60.699 E901.18535
G1 X81.331 Y60.162 E901.20142
G1 X81.174 Y59.645 E901.21751
G1 X80.920 Y59.170 E901.23356
G1 X80.579 Y58.753 E901.24960
G1 X80.162 Y58.409 E901.26570
G1 X79.685 Y58.156 E901.28178
G1 X79.170 Y57.999 E901.29782
G1 X78.631 Y57.945 E901.31395
G1 X78.093 Y57.999 E901.33006
G1 X77.578 Y58.156 E901.34609
G1 X77.102 Y58.409 E901.36215
G1 X76.684 Y58.752 E901.37825
G1 X76.341 Y59.170 E901.39435
G1 X76.088 Y59.646 E901.41041
G1 X75.931 Y60.161 E901.42644
G1 X75.877 Y60.699 E901.44255
G1 X75.931 Y61.237 E901.45865
G1 X76.088 Y61.753 E901.47472
G1 X76.341 Y62.228 E901.49075
G1 X76.684 Y62.647 E901.50687
G1 X77.102 Y62.989 E901.52296
G1 X77.577 Y63.243 E901.53900
G1 X78.094 Y63.400 E901.55509
G1 X78.631 Y63.453 E901.57116
G0 F10500 X78.631 Y62.950
;TYPE:WALL-OUTER
G1 F1080 X79.071 Y62.907 E901.58433
G1 X79.493 Y62.779 E901.59747
G1 X79.883 Y62.571 E901.61063
G1 X80.223 Y62.291 E901.62375
G1 X80.502 Y61.949 E901.63689
G1 X80.710 Y61.561 E901.65001
G1 X80.838 Y61.138 E901.66317
G1 X80.881 Y60.699 E901.67631
G1 X80.838 Y60.260 E901.68944
G1 X80.710 Y59.838 E901.70258
G1 X80.502 Y59.449 E901.71572
G1 X80.223 Y59.108 E901.72884
G1 X79.883 Y58.827 E901.74197
G1 X79.493 Y58.620 E901.75512
G1 X79.071 Y58.492 E901.76826
G1 X78.631 Y58.448 E901.78143
G1 X78.192 Y58.492 E901.79457
G1 X77.770 Y58.620 E901.80770
G1 X77.381 Y58.827 E901.82083
G1 X77.039 Y59.107 E901.83399
G1 X76.759 Y59.449 E901.84716
G1 X76.552 Y59.838 E901.86028
G1 X76.424 Y60.260 E901.87341
G1 X76.380 Y60.699 E901.88655
G1 X76.424 Y61.138 E901.89969
G1 X76.552 Y61.561 E901.91286
G1 X76.759 Y61.949 E901.92595
G1 X77.039 Y62.292 E901.93914
G1 X77.381 Y62.571 E901.95229
G1 X77.770 Y62.779 E901.96543
G1 X78.192 Y62.907 E901.97856
G1 X78.631 Y62.950 E901.99170
G0 F10500 X78.598 Y63.297
G0 X74.891 Y63.011
G0 X74.608 Y63.303
G1 F1080 X74.608 Y58.130 E902.14577
G1 X88.699 Y54.795 E902.57704
G1 X86.998 Y51.752 E902.68087
G1 X86.568 Y51.752 E902.69367
G1 X86.354 Y50.750 E902.72419
G1 X85.530 Y50.193 E902.75381
G1 X85.525 Y48.848 E902.79387
G1 X85.525 Y48.801 E902.79527
G1 X85.938 Y48.801 E902.80757
G1 X85.674 Y47.570 E902.84507
G1 X87.453 Y47.570 E902.89805
G1 X87.453 Y48.333 E902.92078
G1 X89.098 Y48.333 E902.96977
G1 X89.098 Y47.570 E902.99250
G1 X89.742 Y47.570 E903.01168
G1 X89.742 Y48.333 E903.03440
G1 X91.386 Y48.333 E903.08337
G1 X91.386 Y47.570 E903.10609
G1 X92.030 Y47.570 E903.12527
G1 X92.030 Y48.333 E903.14800
G1 X93.674 Y48.333 E903.19696
G1 X93.674 Y47.570 E903.21968
G1 X94.318 Y47.570 E903.23887
G1 X94.318 Y48.333 E903.26159
G1 X95.963 Y48.333 E903.31058
G1 X95.963 Y47.570 E903.33331
G1 X98.119 Y47.570 E903.39752
G1 X99.821 Y55.061 E903.62631
G1 X101.361 Y73.254 E904.17010
G1 X102.058 Y73.254 E904.19086
G1 X102.058 Y74.210 E904.21933
G1 X123.573 Y74.210 E904.86012
G1 X123.573 Y73.254 E904.88860
G1 X130.734 Y73.254 E905.10187
G1 X133.042 Y74.492 E905.17988
G1 X133.042 Y141.982 E907.18996
G1 X130.629 Y144.950 E907.30388
G1 X127.422 Y146.849 E907.41489
G1 X123.481 Y148.100 E907.53804
G1 X123.481 Y147.397 E907.55898
G1 X103.960 Y147.397 E908.14038
G1 X103.960 Y148.147 E908.16271
G1 X100.230 Y148.147 E908.27381
G1 X100.230 Y149.294 E908.30797
G1 X99.204 Y149.294 E908.33853
G1 X99.204 Y148.147 E908.37269
G1 X95.671 Y148.147 E908.47791
G1 X95.671 Y147.397 E908.50025
G1 X88.781 Y147.397 E908.70546
G1 X88.781 Y148.147 E908.72779
G1 X85.326 Y148.147 E908.83070
G1 X85.326 Y149.157 E908.86078
G1 X78.660 Y149.157 E909.05931
G1 X78.660 Y140.883 E909.30574
G1 X79.744 Y140.883 E909.33803
G1 X79.744 Y132.255 E909.59500
G1 X83.399 Y131.827 E909.70460
G1 X86.488 Y129.737 E909.81568
G1 X88.250 Y126.585 E909.92323
G1 X74.608 Y123.398 E910.34047
G1 X74.608 Y118.225 E910.49454
G1 X88.373 Y115.005 E910.91558
G1 X86.488 Y111.634 E911.03061
G1 X83.399 Y109.544 E911.14169
G1 X79.744 Y109.116 E911.25129
G1 X79.744 Y73.254 E912.31938
G1 X85.525 Y73.254 E912.49156
G1 X85.525 Y72.444 E912.51569
G1 X82.403 Y72.444 E912.60867
G1 X82.403 Y71.151 E912.64718
G1 X83.398 Y71.035 E912.67702
G1 X86.488 Y68.944 E912.78814
G1 X87.885 Y66.445 E912.87341
G1 X74.608 Y63.303 E913.27976
G0 F10500 X74.891 Y63.011
G0 X88.448 Y66.198
G0 X86.825 Y69.252
G0 X83.558 Y71.463
G0 X85.916 Y72.053
G0 X85.916 Y73.645
G0 X88.936 Y115.253
G0 X78.664 Y118.326
G0 X78.631 Y118.673
G1 F1080 X78.192 Y118.716 E913.29290
G1 X77.770 Y118.844 E913.30603
G1 X77.380 Y119.052 E913.31920
G1 X77.039 Y119.332 E913.33234
G1 X76.759 Y119.674 E913.34550
G1 X76.552 Y120.063 E913.35863
G1 X76.424 Y120.485 E913.37176
G1 X76.380 Y120.924 E913.38490
G1 X76.424 Y121.363 E913.39804
G1 X76.552 Y121.785 E913.41118
G1 X76.759 Y122.174 E913.42430
G1 X77.039 Y122.516 E913.43746
G1 X77.380 Y122.796 E913.45061
G1 X77.770 Y123.004 E913.46377
G1 X78.192 Y123.131 E913.47690
G1 X78.631 Y123.175 E913.49004
G1 X79.071 Y123.131 E913.50321
G1 X79.493 Y123.004 E913.51633
G1 X79.883 Y122.796 E913.52950
G1 X80.223 Y122.515 E913.54263
G1 X80.502 Y122.174 E913.55575
G1 X80.710 Y121.785 E913.56889
G1 X80.838 Y121.363 E913.58203
G1 X80.881 Y120.924 E913.59516
G1 X80.838 Y120.485 E913.60830
G1 X80.710 Y120.063 E913.62144
G1 X80.502 Y119.674 E913.63457
G1 X80.223 Y119.333 E913.64770
G1 X79.883 Y119.052 E913.66083
G1 X79.493 Y118.844 E913.67400
G1 X79.071 Y118.716 E913.68713
G1 X78.631 Y118.673 E913.70030
G0 F10500 X78.664 Y118.326
G0 X75.820 Y118.633
;TYPE:FILL
G1 F1260 X75.282 Y119.171 E913.72296
G0 F10500 X75.282 Y121.244
G1 F1260 X75.858 Y121.820 E913.74722
G0 F10500 X75.824 Y118.398
G0 X88.936 Y115.253
G0 X86.825 Y111.325
G0 X83.557 Y109.116
G0 X85.916 Y72.053
G0 X88.448 Y66.198
G0 X75.282 Y62.603
G1 F1260 X75.973 Y61.912 E913.77633
G0 F10500 X75.981 Y60.171
G0 X76.444 Y58.766
G1 F1260 X76.139 Y58.461 E913.78917
G0 F10500 X76.275 Y58.428
;TYPE:SKIN
G1 F1380 X75.282 Y59.421 E913.83100
G0 F10500 X75.282 Y60.128
G1 F1380 X76.030 Y59.380 E913.86250
G0 F10500 X78.103 Y58.049
G0 X79.587 Y57.944
G1 F1380 X79.982 Y57.550 E913.87912
G0 F10500 X80.074 Y58.164
G1 F1380 X80.908 Y57.330 E913.91425
G0 F10500 X81.834 Y57.111
G1 F1380 X80.491 Y58.455 E913.97084
G0 F10500 X80.848 Y58.805
G1 F1380 X82.760 Y56.893 E914.05137
G0 F10500 X83.686 Y56.673
G1 F1380 X81.143 Y59.217 E914.15850
G0 F10500 X81.371 Y59.696
G1 F1380 X84.613 Y56.454 E914.29506
G0 F10500 X85.539 Y56.235
G1 F1380 X81.515 Y60.258 E914.46453
G0 F10500 X81.534 Y60.947
G1 F1380 X86.465 Y56.016 E914.67222
G0 F10500 X87.391 Y55.797
G1 F1380 X81.298 Y61.890 E914.92886
G0 F10500 X80.579 Y64.024
G1 F1380 X89.243 Y55.359 E915.29381
G0 F10500 X89.592 Y55.010
G1 F1380 X95.595 Y49.007 E915.54665
G0 F10500 X96.302 Y49.007
G1 F1380 X81.151 Y64.159 E916.18483
G0 F10500 X81.723 Y64.294
G1 F1380 X97.615 Y48.402 E916.85421
G0 F10500 X97.065 Y48.244
G1 F1380 X96.637 Y48.672 E916.87223
G0 F10500 X97.746 Y48.978
G1 F1380 X82.294 Y64.430 E917.52307
G0 F10500 X82.866 Y64.565
G1 F1380 X97.877 Y49.554 E918.15534
G0 F10500 X98.007 Y50.131
G1 F1380 X83.438 Y64.700 E918.76898
G0 F10500 X84.010 Y64.835
G1 F1380 X98.138 Y50.707 E919.36406
G0 F10500 X98.269 Y51.283
G1 F1380 X84.581 Y64.971 E919.94060
G0 F10500 X85.154 Y65.106
G1 F1380 X98.400 Y51.859 E920.49854
G0 F10500 X98.531 Y52.436
G1 F1380 X85.726 Y65.241 E921.03789
G0 F10500 X86.298 Y65.376
G1 F1380 X98.661 Y53.012 E921.55864
G0 F10500 X98.793 Y53.588
G1 F1380 X86.869 Y65.512 E922.06088
G0 F10500 X87.441 Y65.647
G1 F1380 X98.924 Y54.164 E922.54454
G0 F10500 X99.055 Y54.740
G1 F1380 X88.013 Y65.782 E923.00963
G0 F10500 X88.585 Y65.917
G1 F1380 X99.165 Y55.337 E923.45526
G0 F10500 X99.220 Y55.989
G1 F1380 X88.520 Y66.689 E923.90595
G0 F10500 X87.623 Y68.293
G1 F1380 X99.275 Y56.641 E924.39673
G0 F10500 X99.330 Y57.293
G1 F1380 X84.855 Y71.768 E925.00642
G0 F10500 X85.562 Y71.768
G1 F1380 X99.385 Y57.945 E925.58864
G0 F10500 X99.441 Y58.596
G1 F1380 X86.199 Y71.839 E926.14642
G0 F10500 X86.199 Y72.546
G1 F1380 X99.496 Y59.248 E926.70651
G0 F10500 X99.552 Y59.900
G1 F1380 X86.199 Y73.253 E927.26894
G0 F10500 X85.523 Y73.928
G1 F1380 X80.419 Y79.033 E927.48394
G0 F10500 X80.419 Y79.740
G1 F1380 X99.607 Y60.552 E928.29214
G0 F10500 X99.662 Y61.204
G1 F1380 X80.419 Y80.447 E929.10266
G0 F10500 X80.419 Y81.154
G1 F1380 X99.717 Y61.856 E929.91549
G0 F10500 X99.772 Y62.508
G1 F1380 X80.419 Y81.861 E930.73064
G0 F10500 X80.419 Y82.568
G1 F1380 X99.827 Y63.160 E931.54811
G0 F10500 X99.883 Y63.812
G1 F1380 X80.419 Y83.275 E932.36791
G0 F10500 X80.419 Y83.983
G1 F1380 X99.938 Y64.464 E933.19005
G0 F10500 X99.993 Y65.116
G1 F1380 X80.419 Y84.690 E934.01451
G0 F10500 X80.419 Y85.397
G1 F1380 X100.048 Y65.768 E934.84128
G0 F10500 X100.103 Y66.419
G1 F1380 X80.419 Y86.104 E935.67040
G0 F10500 X80.419 Y86.811
G1 F1380 X100.158 Y67.071 E936.50183
G0 F10500 X100.214 Y67.723
G1 F1380 X80.419 Y87.518 E937.33559
G0 F10500 X80.419 Y88.225
G1 F1380 X100.269 Y68.375 E938.17168
G0 F10500 X100.324 Y69.027
G1 F1380 X80.419 Y88.932 E939.01008
G0 F10500 X80.419 Y89.639
G1 F1380 X100.380 Y69.679 E939.85081
G0 F10500 X100.435 Y70.330
G1 F1380 X80.419 Y90.347 E940.69391
G0 F10500 X80.419 Y91.054
G1 F1380 X100.490 Y70.982 E941.53932
G0 F10500 X100.545 Y71.634
G1 F1380 X80.419 Y91.761 E942.38705
G0 F10500 X80.419 Y92.468
G1 F1380 X100.600 Y72.286 E943.23710
G0 F10500 X100.655 Y72.938
G1 F1380 X80.419 Y93.175 E944.08946
G0 F10500 X80.419 Y93.882
G1 F1380 X100.711 Y73.590 E944.94416
G0 F10500 X101.079 Y73.929
G1 F1380 X80.419 Y94.589 E945.81436
G0 F10500 X80.419 Y95.296
G1 F1380 X101.382 Y74.333 E946.69732
G0 F10500 X101.537 Y74.885
G1 F1380 X80.419 Y96.003 E947.58681
G0 F10500 X80.419 Y96.710
G1 F1380 X102.244 Y74.885 E948.50609
G0 F10500 X102.951 Y74.885
G1 F1380 X80.419 Y97.418 E949.45516
G0 F10500 X80.419 Y98.125
G1 F1380 X103.659 Y74.885 E950.43403
G0 F10500 X104.366 Y74.885
G1 F1380 X80.419 Y98.832 E951.44267
G0 F10500 X80.419 Y99.539
G1 F1380 X105.073 Y74.885 E952.48110
G0 F10500 X105.780 Y74.885
G1 F1380 X80.419 Y100.246 E953.54931
G0 F10500 X80.419 Y100.953
G1 F1380 X106.487 Y74.885 E954.64730
G0 F10500 X107.194 Y74.885
G1 F1380 X80.419 Y101.660 E955.77506
G0 F10500 X80.419 Y102.367
G1 F1380 X107.901 Y74.885 E956.93260
G0 F10500 X108.608 Y74.885
G1 F1380 X80.419 Y103.074 E958.11993
G0 F10500 X80.419 Y103.782
G1 F1380 X109.315 Y74.885 E959.33705
G0 F10500 X110.022 Y74.885
G1 F1380 X80.419 Y104.489 E960.58395
G0 F10500 X80.419 Y105.196
G1 F1380 X110.730 Y74.885 E961.86065
G0 F10500 X111.437 Y74.885
G1 F1380 X80.419 Y105.903 E963.16713
G0 F10500 X80.419 Y106.610
G1 F1380 X112.144 Y74.885 E964.50339
G0 F10500 X112.851 Y74.885
G1 F1380 X80.419 Y107.317 E965.86943
G0 F10500 X80.419 Y108.024
G1 F1380 X113.558 Y74.885 E967.26524
G0 F10500 X114.265 Y74.885
G1 F1380 X80.613 Y108.538 E968.68269
G0 F10500 X81.245 Y108.612
G1 F1380 X114.972 Y74.885 E970.10327
G0 F10500 X115.679 Y74.885
G1 F1380 X81.878 Y108.686 E971.52697
G0 F10500 X82.512 Y108.760
G1 F1380 X116.386 Y74.885 E972.95377
G0 F10500 X117.094 Y74.885
G1 F1380 X83.145 Y108.834 E974.38370
G0 F10500 X83.732 Y108.953
G1 F1380 X117.801 Y74.885 E975.81867
G0 F10500 X118.508 Y74.885
G1 F1380 X84.154 Y109.239 E977.26566
G0 F10500 X84.575 Y109.525
G1 F1380 X119.215 Y74.885 E978.72470
G0 F10500 X119.922 Y74.885
G1 F1380 X84.997 Y109.810 E980.19575
G0 F10500 X85.419 Y110.095
G1 F1380 X120.629 Y74.885 E981.67879
G0 F10500 X121.336 Y74.885
G1 F1380 X85.841 Y110.380 E983.17384
G0 F10500 X86.262 Y110.666
G1 F1380 X122.043 Y74.885 E984.68094
G0 F10500 X122.750 Y74.885
G1 F1380 X86.684 Y110.951 E986.20004
G0 F10500 X87.064 Y111.278
G1 F1380 X123.458 Y74.885 E987.73294
G0 F10500 X124.165 Y74.885
G1 F1380 X87.317 Y111.732 E989.28496
G0 F10500 X87.570 Y112.186
G1 F1380 X125.828 Y73.929 E990.89637
G0 F10500 X126.535 Y73.929
G1 F1380 X87.824 Y112.639 E992.52686
G0 F10500 X88.077 Y113.093
G1 F1380 X127.242 Y73.929 E994.17647
G0 F10500 X127.949 Y73.929
G1 F1380 X88.331 Y113.547 E995.84518
G0 F10500 X88.584 Y114.001
G1 F1380 X128.656 Y73.929 E997.53302
G0 F10500 X129.363 Y73.929
G1 F1380 X88.838 Y114.454 E999.23993
G0 F10500 X89.091 Y114.908
G1 F1380 X130.070 Y73.929 E1000.96597
G0 F10500 X130.703 Y74.003
G1 F1380 X89.345 Y115.361 E1002.70797
G0 F10500 X89.203 Y115.503
G1 F1380 X80.602 Y124.105 E1003.07027
G0 F10500 X81.175 Y124.238
G1 F1380 X131.164 Y74.250 E1005.17578
G0 F10500 X131.624 Y74.497
G1 F1380 X81.749 Y124.372 E1007.27652
G0 F10500 X82.322 Y124.506
G1 F1380 X132.084 Y74.744 E1009.37250
G0 F10500 X132.366 Y75.168
G1 F1380 X82.895 Y124.640 E1011.45624
G0 F10500 X83.469 Y124.773
G1 F1380 X132.366 Y75.876 E1013.51579
G0 F10500 X132.366 Y76.583
G1 F1380 X84.041 Y124.908 E1015.55124
G0 F10500 X84.615 Y125.041
G1 F1380 X132.366 Y77.290 E1017.56252
G0 F10500 X132.366 Y77.997
G1 F1380 X85.188 Y125.175 E1019.54966
G0 F10500 X85.761 Y125.309
G1 F1380 X132.366 Y78.704 E1021.51266
G0 F10500 X132.366 Y79.411
G1 F1380 X86.334 Y125.443 E1023.45153
G0 F10500 X86.908 Y125.577
G1 F1380 X132.366 Y80.118 E1025.36625
G0 F10500 X132.366 Y80.825
G1 F1380 X87.481 Y125.711 E1027.25683
G0 F10500 X88.054 Y125.845
G1 F1380 X132.366 Y81.532 E1029.12327
G0 F10500 X132.366 Y82.240
G1 F1380 X88.628 Y125.978 E1030.96552
G0 F10500 X89.200 Y126.113
G1 F1380 X132.366 Y82.947 E1032.78367
G0 F10500 X132.366 Y83.654
G1 F1380 X88.499 Y127.521 E1034.63135
G0 F10500 X87.603 Y129.124
G1 F1380 X132.366 Y84.361 E1036.51678
G0 F10500 X132.366 Y85.068
G1 F1380 X80.419 Y137.016 E1038.70481
G0 F10500 X80.419 Y137.723
G1 F1380 X132.366 Y85.775 E1040.89284
G0 F10500 X132.366 Y86.482
G1 F1380 X80.419 Y138.430 E1043.08087
G0 F10500 X80.419 Y139.137
G1 F1380 X132.366 Y87.189 E1045.26890
G0 F10500 X132.366 Y87.896
G1 F1380 X80.419 Y139.844 E1047.45693
G0 F10500 X80.419 Y136.308
G1 F1380 X85.525 Y131.202 E1047.67200
G0 F10500 X83.530 Y132.490
G1 F1380 X80.419 Y135.601 E1047.80304
G0 F10500 X80.419 Y134.894
G1 F1380 X82.730 Y132.583 E1047.90037
G0 F10500 X81.929 Y132.677
G1 F1380 X80.419 Y134.187 E1047.96398
G0 F10500 X80.419 Y133.480
G1 F1380 X81.129 Y132.770 E1047.99388
G0 F10500 X83.557 Y132.255
G0 X86.824 Y130.046
G0 X88.814 Y126.337
G0 X80.029 Y123.970
G1 F1380 X88.280 Y115.719 E1048.34141
G0 F10500 X87.357 Y115.935
G1 F1380 X81.374 Y121.918 E1048.59342
G0 F10500 X81.548 Y121.037
G1 F1380 X86.434 Y116.151 E1048.79922
G0 F10500 X85.511 Y116.367
G1 F1380 X81.505 Y120.373 E1048.96795
G0 F10500 X81.344 Y119.827
G1 F1380 X84.589 Y116.582 E1049.10463
G0 F10500 X83.666 Y116.798
G1 F1380 X81.102 Y119.362 E1049.21263
G0 F10500 X80.794 Y118.962
G1 F1380 X82.743 Y117.014 E1049.29470
G0 F10500 X81.820 Y117.229
G1 F1380 X80.425 Y118.624 E1049.35345
G0 F10500 X79.996 Y118.347
G1 F1380 X80.897 Y117.446 E1049.39140
G0 F10500 X79.974 Y117.661
G1 F1380 X79.273 Y118.008 E1049.41149
G1 X78.963 Y117.965 E1049.42081
G0 F10500 X76.282 Y118.525
G1 F1380 X75.282 Y119.525 E1049.46293
G0 F10500 X75.282 Y120.232
G1 F1380 X76.167 Y119.347 E1049.50020
G0 F10500 X75.359 Y118.741
G1 F1380 X75.282 Y118.817 E1049.50342
G0 F10500 X75.745 Y120.476
G1 F1380 X75.505 Y121.069 E1049.52290
G1 X75.564 Y121.717 E1049.54173
G1 X75.362 Y122.626 E1049.56553
G1 X76.193 Y122.503 E1049.59125
G1 X76.016 Y123.033 E1049.60789
G0 F10500 X79.456 Y123.837
G1 F1380 X79.624 Y123.668 E1049.61499
G0 F10500 X88.814 Y126.337
G0 X86.824 Y130.046
G0 X83.557 Y132.255
G0 X80.419 Y140.551
G1 F1380 X132.366 Y88.604 E1051.80300
G0 F10500 X132.366 Y89.311
G1 F1380 X80.419 Y141.258 E1053.99101
G0 F10500 X80.120 Y141.557
G1 F1380 X79.334 Y142.343 E1054.02412
G0 F10500 X79.334 Y143.050
G1 F1380 X132.366 Y90.018 E1056.25783
G0 F10500 X132.366 Y90.725
G1 F1380 X79.334 Y143.757 E1058.49154
G0 F10500 X79.334 Y144.464
G1 F1380 X132.366 Y91.432 E1060.72525
G0 F10500 X132.366 Y92.139
G1 F1380 X79.334 Y145.171 E1062.95896
G0 F10500 X79.334 Y145.878
G1 F1380 X132.366 Y92.846 E1065.19267
G0 F10500 X132.366 Y93.553
G1 F1380 X79.334 Y146.586 E1067.42640
G0 F10500 X79.334 Y147.293
G1 F1380 X132.366 Y94.260 E1069.66014
G0 F10500 X132.366 Y94.967
G1 F1380 X79.334 Y148.000 E1071.89387
G0 F10500 X79.560 Y148.481
G1 F1380 X132.366 Y95.675 E1074.11806
G0 F10500 X132.366 Y96.382
G1 F1380 X80.267 Y148.481 E1076.31247
G0 F10500 X80.975 Y148.481
G1 F1380 X132.366 Y97.089 E1078.47709
G0 F10500 X132.366 Y97.796
G1 F1380 X81.682 Y148.481 E1080.61192
G0 F10500 X82.389 Y148.481
G1 F1380 X132.366 Y98.503 E1082.71698
G0 F10500 X132.366 Y99.210
G1 F1380 X83.096 Y148.481 E1084.79225
G0 F10500 X83.803 Y148.481
G1 F1380 X84.650 Y147.633 E1084.82795
G0 F10500 X84.813 Y147.471
G1 F1380 X132.366 Y99.917 E1086.83091
G0 F10500 X132.366 Y100.624
G1 F1380 X85.520 Y147.471 E1088.80408
G0 F10500 X86.227 Y147.471
G1 F1380 X132.366 Y101.331 E1090.74748
G0 F10500 X132.366 Y102.039
G1 F1380 X86.934 Y147.471 E1092.66108
G0 F10500 X87.641 Y147.471
G1 F1380 X88.105 Y147.007 E1092.68062
G0 F10500 X88.391 Y146.721
G1 F1380 X132.366 Y102.746 E1094.53285
G0 F10500 X132.366 Y103.453
G1 F1380 X89.098 Y146.721 E1096.35531
G0 F10500 X89.805 Y146.721
G1 F1380 X132.366 Y104.160 E1098.14798
G0 F10500 X132.366 Y104.867
G1 F1380 X90.512 Y146.721 E1099.91087
G0 F10500 X91.219 Y146.721
G1 F1380 X132.366 Y105.574 E1101.64398
G0 F10500 X132.366 Y106.281
G1 F1380 X91.926 Y146.721 E1103.34732
G0 F10500 X92.633 Y146.721
G1 F1380 X132.366 Y106.988 E1105.02088
G0 F10500 X132.366 Y107.695
G1 F1380 X93.340 Y146.721 E1106.66465
G0 F10500 X94.048 Y146.721
G1 F1380 X132.366 Y108.403 E1108.27861
G0 F10500 X132.366 Y109.110
G1 F1380 X94.755 Y146.721 E1109.86279
G0 F10500 X95.462 Y146.721
G1 F1380 X132.366 Y109.817 E1111.41719
G0 F10500 X132.366 Y110.524
G1 F1380 X96.169 Y146.721 E1112.94181
G0 F10500 X96.346 Y147.252
G1 F1380 X132.366 Y111.231 E1114.45899
G0 F10500 X132.366 Y111.938
G1 F1380 X96.834 Y147.471 E1115.95562
G0 F10500 X97.541 Y147.471
G1 F1380 X132.366 Y112.645 E1117.42248
G0 F10500 X132.366 Y113.352
G1 F1380 X98.248 Y147.471 E1118.85955
G0 F10500 X98.955 Y147.471
G1 F1380 X132.366 Y114.059 E1120.26684
G0 F10500 X132.366 Y114.766
G1 F1380 X99.662 Y147.471 E1121.64436
G0 F10500 X96.062 Y147.006
G0 X88.390 Y147.006
G0 X84.935 Y147.756
G0 X84.650 Y148.341
G1 F1380 X84.510 Y148.481 E1121.65026
G0 F10500 X79.334 Y141.636
G1 F1380 X79.413 Y141.557 E1121.65358
G0 F10500 X100.369 Y147.471
G1 F1380 X132.366 Y115.474 E1123.00130
G0 F10500 X132.366 Y116.181
G1 F1380 X101.076 Y147.471 E1124.31924
G0 F10500 X101.783 Y147.471
G1 F1380 X132.366 Y116.888 E1125.60739
G0 F10500 X132.366 Y117.595
G1 F1380 X102.490 Y147.471 E1126.86577
G0 F10500 X103.197 Y147.471
G1 F1380 X103.284 Y147.384 E1126.86944
G0 F10500 X103.948 Y146.721
G1 F1380 X132.366 Y118.302 E1128.06643
G0 F10500 X132.366 Y119.009
G1 F1380 X104.655 Y146.721 E1129.23364
G0 F10500 X105.362 Y146.721
G1 F1380 X132.366 Y119.716 E1130.37107
G0 F10500 X132.366 Y120.423
G1 F1380 X106.069 Y146.721 E1131.47872
G0 F10500 X106.776 Y146.721
G1 F1380 X132.366 Y121.130 E1132.55659
G0 F10500 X132.366 Y121.838
G1 F1380 X107.483 Y146.721 E1133.60467
G0 F10500 X108.190 Y146.721
G1 F1380 X132.366 Y122.545 E1134.62296
G0 F10500 X132.366 Y123.252
G1 F1380 X108.897 Y146.721 E1135.61148
G0 F10500 X109.605 Y146.721
G1 F1380 X132.366 Y123.959 E1136.57019
G0 F10500 X132.366 Y124.666
G1 F1380 X110.312 Y146.721 E1137.49913
G0 F10500 X111.019 Y146.721
G1 F1380 X132.366 Y125.373 E1138.39829
G0 F10500 X132.366 Y126.080
G1 F1380 X111.726 Y146.721 E1139.26767
G0 F10500 X112.433 Y146.721
G1 F1380 X132.366 Y126.787 E1140.10727
G0 F10500 X132.366 Y127.494
G1 F1380 X113.140 Y146.721 E1140.91709
G0 F10500 X113.847 Y146.721
G1 F1380 X132.366 Y128.201 E1141.69713
G0 F10500 X132.366 Y128.909
G1 F1380 X114.554 Y146.721 E1142.44737
G0 F10500 X115.261 Y146.721
G1 F1380 X132.366 Y129.616 E1143.16784
G0 F10500 X132.366 Y130.323
G1 F1380 X115.969 Y146.721 E1143.85850
G0 F10500 X116.676 Y146.721
G1 F1380 X132.366 Y131.030 E1144.51939
G0 F10500 X132.366 Y131.737
G1 F1380 X117.383 Y146.721 E1145.15049
G0 F10500 X118.090 Y146.721
G1 F1380 X132.366 Y132.444 E1145.75182
G0 F10500 X132.366 Y133.151
G1 F1380 X118.797 Y146.721 E1146.32337
G0 F10500 X119.504 Y146.721
G1 F1380 X132.366 Y133.858 E1146.86514
G0 F10500 X132.366 Y134.565
G1 F1380 X120.211 Y146.721 E1147.37713
G0 F10500 X120.918 Y146.721
G1 F1380 X132.366 Y135.273 E1147.85932
G0 F10500 X132.366 Y135.980
G1 F1380 X121.625 Y146.721 E1148.31173
G0 F10500 X122.333 Y146.721
G1 F1380 X132.366 Y136.687 E1148.73434
G0 F10500 X132.366 Y137.394
G1 F1380 X123.040 Y146.721 E1149.12717
G0 F10500 X123.747 Y146.721
G1 F1380 X132.366 Y138.101 E1149.49023
G0 F10500 X132.366 Y138.808
G1 F1380 X124.155 Y147.019 E1149.83607
G0 F10500 X124.959 Y146.922
G1 F1380 X132.366 Y139.515 E1150.14806
G0 F10500 X132.366 Y140.222
G1 F1380 X125.996 Y146.593 E1150.41638
G0 F10500 X127.032 Y146.264
G1 F1380 X132.366 Y140.929 E1150.64107
G0 F10500 X132.366 Y141.637
G1 F1380 X128.689 Y145.313 E1150.79593
G0 F10500 X124.247 Y74.803
G1 F1380 X125.121 Y73.929 E1150.83274
G0 F10500 X124.414 Y73.929
G1 F1380 X124.247 Y74.096 E1150.83977
G0 F10500 X123.964 Y74.601
G0 X101.667 Y74.601
G0 X100.997 Y73.651
G0 X94.888 Y49.007
G1 F1380 X89.338 Y54.557 E1151.07354
G0 F10500 X89.085 Y54.103
G1 F1380 X94.181 Y49.007 E1151.28818
G0 F10500 X93.474 Y49.007
G1 F1380 X88.831 Y53.650 E1151.48375
G0 F10500 X88.577 Y53.197
G1 F1380 X92.767 Y49.007 E1151.66023
G0 F10500 X92.060 Y49.007
G1 F1380 X88.324 Y52.743 E1151.81759
G0 F10500 X88.070 Y52.289
G1 F1380 X91.353 Y49.007 E1151.95585
G0 F10500 X90.646 Y49.007
G1 F1380 X87.817 Y51.835 E1152.07499
G0 F10500 X87.563 Y51.382
G1 F1380 X89.939 Y49.007 E1152.17504
G0 F10500 X89.231 Y49.007
G1 F1380 X87.162 Y51.077 E1152.26221
G0 F10500 X86.998 Y50.534
G1 F1380 X88.524 Y49.007 E1152.32651
G0 F10500 X87.817 Y49.007
G1 F1380 X86.672 Y50.152 E1152.37473
G0 F10500 X86.251 Y49.866
G1 F1380 X86.695 Y49.422 E1152.39115
G1 X87.110 Y49.007 E1152.40863
G0 F10500 X89.261 Y55.042
G0 X88.317 Y55.578
G1 F1380 X80.007 Y63.889 E1152.75867
G0 F10500 X88.448 Y66.198
G0 X86.825 Y69.252
G0 X85.470 Y70.446
G1 F1380 X84.148 Y71.768 E1152.81436
G0 F10500 X85.916 Y72.053
G0 X85.916 Y73.645
G0 X84.109 Y73.928
G1 F1380 X80.419 Y77.619 E1152.96980
G0 F10500 X80.419 Y78.326
G1 F1380 X84.816 Y73.928 E1153.15502
G0 F10500 X83.402 Y73.928
G1 F1380 X80.419 Y76.912 E1153.28069
G0 F10500 X80.419 Y76.204
G1 F1380 X82.695 Y73.928 E1153.37655
G0 F10500 X81.988 Y73.928
G1 F1380 X80.419 Y75.497 E1153.44264
G0 F10500 X80.419 Y74.790
G1 F1380 X81.281 Y73.928 E1153.47895
G0 F10500 X80.574 Y73.928
G1 F1380 X80.419 Y74.083 E1153.48548
G0 F10500 X85.916 Y73.645
G0 X85.916 Y72.053
G0 X88.448 Y66.198
G0 X79.435 Y63.753
G1 F1380 X79.818 Y63.370 E1153.50161
G0 F10500 X78.105 Y63.350
G0 X76.736 Y62.916
